<?xml version="1.0" encoding="UTF-8"?>
<map version="1.10" tiledversion="1.12.2" orientation="orthogonal" renderorder="right-down" width="400" height="20" tilewidth="16" tileheight="16" infinite="0" nextlayerid="14" nextobjectid="251">
 <tileset firstgid="1" name="bottomlayer" tilewidth="16" tileheight="16" tilecount="66" columns="11">
  <image source="tiles.png" width="176" height="96"/>
 </tileset>
 <tileset firstgid="67" name="tiles" tilewidth="16" tileheight="16" tilecount="240" columns="20">
  <image source="free-swamp-game-tileset-pixel-art/1 Tiles/Tileset.png" width="320" height="192"/>
 </tileset>
 <tileset firstgid="307" name="trees and stones" tilewidth="199" tileheight="183" tilecount="48" columns="0">
  <grid orientation="orthogonal" width="1" height="1"/>
  <tile id="0">
   <image source="free-swamp-game-tileset-pixel-art/3 Objects/Trees/1.png" width="101" height="103"/>
  </tile>
  <tile id="1">
   <image source="free-swamp-game-tileset-pixel-art/3 Objects/Trees/2.png" width="104" height="132"/>
  </tile>
  <tile id="2">
   <image source="free-swamp-game-tileset-pixel-art/3 Objects/Trees/3.png" width="123" height="150"/>
  </tile>
  <tile id="3">
   <image source="free-swamp-game-tileset-pixel-art/3 Objects/Boxes/1.png" width="34" height="28"/>
  </tile>
  <tile id="4">
   <image source="free-swamp-game-tileset-pixel-art/3 Objects/Boxes/2.png" width="34" height="27"/>
  </tile>
  <tile id="5">
   <image source="free-swamp-game-tileset-pixel-art/3 Objects/Boxes/3.png" width="27" height="26"/>
  </tile>
  <tile id="6">
   <image source="free-swamp-game-tileset-pixel-art/3 Objects/Boxes/4.png" width="33" height="26"/>
  </tile>
  <tile id="7">
   <image source="free-swamp-game-tileset-pixel-art/3 Objects/Boxes/5.png" width="34" height="27"/>
  </tile>
  <tile id="8">
   <image source="free-swamp-game-tileset-pixel-art/3 Objects/Boxes/6.png" width="27" height="26"/>
  </tile>
  <tile id="9">
   <image source="free-swamp-game-tileset-pixel-art/3 Objects/Bushes/1.png" width="31" height="15"/>
  </tile>
  <tile id="10">
   <image source="free-swamp-game-tileset-pixel-art/3 Objects/Bushes/2.png" width="30" height="10"/>
  </tile>
  <tile id="11">
   <image source="free-swamp-game-tileset-pixel-art/3 Objects/Bushes/3.png" width="29" height="15"/>
  </tile>
  <tile id="12">
   <image source="free-swamp-game-tileset-pixel-art/3 Objects/Bushes/4.png" width="31" height="21"/>
  </tile>
  <tile id="13">
   <image source="free-swamp-game-tileset-pixel-art/3 Objects/Bushes/5.png" width="63" height="28"/>
  </tile>
  <tile id="14">
   <image source="free-swamp-game-tileset-pixel-art/3 Objects/Bushes/6.png" width="31" height="26"/>
  </tile>
  <tile id="15">
   <image source="free-swamp-game-tileset-pixel-art/3 Objects/Bushes/7.png" width="61" height="24"/>
  </tile>
  <tile id="16">
   <image source="free-swamp-game-tileset-pixel-art/3 Objects/Bushes/8.png" width="63" height="27"/>
  </tile>
  <tile id="17">
   <image source="free-swamp-game-tileset-pixel-art/3 Objects/Bushes/9.png" width="61" height="25"/>
  </tile>
  <tile id="18">
   <image source="free-swamp-game-tileset-pixel-art/3 Objects/Fence/1.png" width="23" height="18"/>
  </tile>
  <tile id="19">
   <image source="free-swamp-game-tileset-pixel-art/3 Objects/Fence/2.png" width="25" height="20"/>
  </tile>
  <tile id="20">
   <image source="free-swamp-game-tileset-pixel-art/3 Objects/Fence/3.png" width="16" height="13"/>
  </tile>
  <tile id="21">
   <image source="free-swamp-game-tileset-pixel-art/3 Objects/Ridges/1.png" width="89" height="26"/>
  </tile>
  <tile id="22">
   <image source="free-swamp-game-tileset-pixel-art/3 Objects/Ridges/2.png" width="40" height="28"/>
  </tile>
  <tile id="23">
   <image source="free-swamp-game-tileset-pixel-art/3 Objects/Ridges/3.png" width="109" height="41"/>
  </tile>
  <tile id="24">
   <image source="free-swamp-game-tileset-pixel-art/3 Objects/Ridges/4.png" width="65" height="61"/>
  </tile>
  <tile id="25">
   <image source="free-swamp-game-tileset-pixel-art/3 Objects/Ridges/5.png" width="81" height="29"/>
  </tile>
  <tile id="26">
   <image source="free-swamp-game-tileset-pixel-art/3 Objects/Ridges/6.png" width="47" height="55"/>
  </tile>
  <tile id="27">
   <image source="free-swamp-game-tileset-pixel-art/3 Objects/Stones/1.png" width="63" height="59"/>
  </tile>
  <tile id="28">
   <image source="free-swamp-game-tileset-pixel-art/3 Objects/Stones/2.png" width="47" height="57"/>
  </tile>
  <tile id="29">
   <image source="free-swamp-game-tileset-pixel-art/3 Objects/Stones/3.png" width="52" height="63"/>
  </tile>
  <tile id="30">
   <image source="free-swamp-game-tileset-pixel-art/3 Objects/Stones/4.png" width="57" height="30"/>
  </tile>
  <tile id="31">
   <image source="free-swamp-game-tileset-pixel-art/3 Objects/Stones/5.png" width="31" height="31"/>
  </tile>
  <tile id="32">
   <image source="free-swamp-game-tileset-pixel-art/3 Objects/Willows/1.png" width="104" height="135"/>
  </tile>
  <tile id="33">
   <image source="free-swamp-game-tileset-pixel-art/3 Objects/Willows/2.png" width="141" height="168"/>
  </tile>
  <tile id="34">
   <image source="free-swamp-game-tileset-pixel-art/3 Objects/Willows/3.png" width="199" height="183"/>
  </tile>
  <tile id="35">
   <image source="free-swamp-game-tileset-pixel-art/3 Objects/Grass/1.png" width="17" height="18"/>
  </tile>
  <tile id="36">
   <image source="free-swamp-game-tileset-pixel-art/3 Objects/Grass/2.png" width="17" height="16"/>
  </tile>
  <tile id="37">
   <image source="free-swamp-game-tileset-pixel-art/3 Objects/Grass/3.png" width="14" height="16"/>
  </tile>
  <tile id="38">
   <image source="free-swamp-game-tileset-pixel-art/3 Objects/Grass/4.png" width="12" height="12"/>
  </tile>
  <tile id="39">
   <image source="free-swamp-game-tileset-pixel-art/3 Objects/Grass/5.png" width="11" height="13"/>
  </tile>
  <tile id="40">
   <image source="free-swamp-game-tileset-pixel-art/3 Objects/Grass/6.png" width="11" height="9"/>
  </tile>
  <tile id="41">
   <image source="free-swamp-game-tileset-pixel-art/3 Objects/Grass/7.png" width="7" height="14"/>
  </tile>
  <tile id="42">
   <image source="free-swamp-game-tileset-pixel-art/3 Objects/Grass/8.png" width="8" height="14"/>
  </tile>
  <tile id="43">
   <image source="free-swamp-game-tileset-pixel-art/3 Objects/Grass/9.png" width="6" height="8"/>
  </tile>
  <tile id="44">
   <image source="free-swamp-game-tileset-pixel-art/3 Objects/Grass/10.png" width="9" height="11"/>
  </tile>
  <tile id="45">
   <image source="free-swamp-game-tileset-pixel-art/3 Objects/Ladders/5.png" width="32" height="32"/>
  </tile>
  <tile id="46">
   <image source="free-swamp-game-tileset-pixel-art/3 Objects/Ladders/6.png" width="32" height="32"/>
  </tile>
  <tile id="47">
   <image source="free-swamp-game-tileset-pixel-art/3 Objects/Ladders/4.png" width="32" height="32"/>
  </tile>
 </tileset>
 <imagelayer id="6" name="Image Layer 1" offsetx="1635" offsety="-5" repeatx="1">
  <image source="free-swamp-game-tileset-pixel-art/2 Background/Background.png" width="576" height="324"/>
 </imagelayer>
 <layer id="10" name="decorations" width="400" height="20">
  <data encoding="csv">
0,0,0,0,0,0,0,0,0,0,0,0,0,0,0,0,0,0,0,0,0,0,0,0,0,0,0,0,0,0,0,0,0,0,0,0,0,0,0,0,0,0,0,0,0,0,0,0,0,0,0,0,0,0,0,0,0,0,0,0,0,0,0,0,0,0,0,0,0,0,0,0,0,0,0,0,0,0,0,0,0,0,0,0,0,0,0,0,0,0,0,0,0,0,0,0,0,0,0,0,0,0,0,0,0,0,0,0,0,0,0,0,0,0,0,0,0,0,0,0,0,0,0,0,0,0,0,0,0,0,0,0,0,0,0,0,0,0,0,0,0,0,0,0,0,0,0,0,0,0,0,0,0,0,0,0,0,0,0,0,0,0,0,0,0,0,0,0,0,0,0,0,0,0,0,0,0,0,0,0,0,0,0,0,0,0,0,0,0,0,0,0,0,0,0,0,0,0,0,0,0,0,0,0,0,0,0,0,0,0,0,0,0,0,0,0,0,0,0,0,0,0,0,0,0,0,0,0,0,0,0,0,0,0,0,0,0,0,0,0,0,0,0,0,0,0,0,0,0,0,0,0,0,0,0,0,0,0,0,0,0,0,0,0,0,0,0,0,0,0,0,0,0,0,0,0,0,0,0,0,0,0,0,0,0,0,0,0,0,0,0,0,0,0,0,0,0,0,0,0,0,0,0,0,0,0,0,0,0,0,0,0,0,0,0,0,0,0,0,0,0,0,0,0,0,0,0,0,0,0,0,0,0,0,0,0,0,0,0,0,0,0,0,0,0,0,0,0,0,0,0,0,0,0,0,0,0,0,0,0,0,0,0,0,0,0,0,0,0,0,0,0,0,0,0,0,0,0,0,0,0,0,0,0,0,0,0,0,0,0,0,0,0,0,0,0,0,0,0,0,
0,0,0,0,0,0,0,0,0,0,0,0,0,0,0,0,0,0,0,0,0,0,0,0,0,0,0,0,0,0,0,0,0,0,0,0,0,0,0,0,0,0,0,0,0,0,0,0,0,0,0,0,0,0,0,0,0,0,0,0,0,0,0,0,0,0,0,0,0,0,0,0,0,0,0,0,0,0,0,0,0,0,0,0,0,0,0,0,0,0,0,0,0,0,0,0,0,0,0,0,0,0,0,0,0,0,0,0,0,0,0,0,0,0,0,0,0,0,0,0,0,0,0,0,0,0,0,0,0,0,0,0,0,0,0,0,0,0,0,0,0,0,0,0,0,0,0,0,0,0,0,0,0,0,0,0,0,0,0,0,0,0,0,0,0,0,0,0,0,0,0,0,0,0,0,0,0,0,0,0,0,0,0,0,0,0,0,0,0,0,0,0,0,0,0,0,0,0,0,0,0,0,0,0,0,0,0,0,0,0,0,0,0,0,0,0,0,0,0,0,0,0,0,0,0,0,0,0,0,0,0,0,0,0,0,0,0,0,0,0,0,0,0,0,0,0,0,0,0,0,0,0,0,0,0,0,0,0,0,0,0,0,0,0,0,0,0,0,0,0,0,0,0,0,0,0,0,0,0,0,0,0,0,0,0,0,0,0,0,0,0,0,0,0,0,0,0,0,0,0,0,0,0,0,0,0,0,0,0,0,0,0,0,0,0,0,0,0,0,0,0,0,0,0,0,0,0,0,0,0,0,0,0,0,0,0,0,0,0,0,0,0,0,0,0,0,0,0,0,0,0,0,0,0,0,0,0,0,0,0,0,0,0,0,0,0,0,0,0,0,0,0,0,0,0,0,0,0,0,0,0,0,0,0,0,0,0,0,0,0,0,0,0,0,0,0,0,0,0,0,
0,0,0,0,0,0,0,0,0,0,0,0,0,0,0,0,0,0,0,0,0,0,0,0,0,0,0,0,0,0,0,0,0,0,0,0,0,0,0,0,0,0,0,0,0,0,0,0,0,0,0,0,0,0,0,0,0,0,0,0,0,0,0,0,0,0,0,0,0,0,0,0,0,0,0,0,0,0,0,0,0,0,0,0,0,0,0,0,0,0,0,0,0,0,0,0,0,0,0,0,0,0,0,0,0,0,0,0,0,0,0,0,0,0,0,0,0,0,0,0,0,0,0,0,0,0,0,0,0,0,0,0,0,0,0,0,0,0,0,0,0,0,0,0,0,0,0,0,0,0,0,0,0,0,0,0,0,0,0,0,0,0,0,0,0,0,0,0,0,0,0,0,0,0,0,0,0,0,0,0,0,0,0,0,0,0,0,0,0,0,0,0,0,0,0,0,0,0,0,0,0,0,0,0,0,0,0,0,0,0,0,0,0,0,0,0,0,0,0,0,0,0,0,0,0,0,0,0,0,0,0,0,0,0,0,0,0,0,0,0,0,0,0,0,0,0,0,0,0,0,0,0,0,0,0,0,0,0,0,0,0,0,0,0,0,0,0,0,0,0,0,0,0,0,0,0,0,0,0,0,0,0,0,0,0,0,0,0,0,0,0,0,0,0,0,0,0,0,0,0,0,0,0,0,0,0,0,0,0,0,0,0,0,0,0,0,0,0,0,0,0,0,0,0,0,0,0,0,0,0,0,0,0,0,0,0,0,0,0,0,0,0,0,0,0,0,0,0,0,0,0,0,0,0,0,0,0,0,0,0,0,0,0,0,0,0,0,0,0,342,0,0,0,0,0,0,0,0,0,0,0,0,0,0,0,0,0,0,0,0,0,0,0,0,0,0,0,0,0,0,
0,0,0,0,0,0,0,0,0,0,0,0,0,0,0,0,0,0,0,0,0,0,0,0,0,0,0,0,0,0,0,0,0,0,0,0,0,0,0,0,0,0,0,0,0,0,0,0,0,0,0,0,0,0,0,0,0,0,0,0,0,0,0,0,0,0,0,0,0,0,0,0,0,0,0,0,0,0,0,0,0,0,0,0,0,0,0,0,0,0,0,0,0,0,0,0,0,0,0,0,0,0,0,0,0,0,0,0,0,0,0,0,0,0,0,0,0,0,0,0,0,0,0,0,0,0,0,0,0,0,0,0,0,0,0,0,0,0,0,0,0,0,0,0,0,0,0,0,0,0,0,0,0,0,0,0,0,0,0,0,0,0,0,0,0,0,0,0,0,0,0,0,0,0,0,0,0,0,0,0,0,0,0,0,0,0,0,0,0,0,0,0,0,0,0,0,0,0,0,0,0,0,0,0,0,0,0,0,0,0,0,0,0,0,0,0,0,0,0,0,0,0,0,0,0,0,0,0,0,0,0,0,0,0,0,0,0,0,0,0,0,0,0,0,0,0,0,0,0,0,0,0,0,0,0,0,0,0,0,0,0,0,0,0,0,0,0,0,0,0,0,0,0,0,0,0,0,0,0,0,0,0,0,0,0,0,0,0,0,0,0,0,0,0,0,0,0,0,0,0,0,0,0,0,0,0,0,0,0,0,0,0,0,0,0,0,0,0,0,0,0,0,0,0,0,0,0,0,0,0,0,0,0,0,0,0,0,0,0,0,0,0,0,0,0,0,0,0,0,0,0,0,0,0,0,0,0,0,0,0,0,0,0,0,0,0,0,0,0,0,0,0,0,0,0,0,0,0,0,0,0,0,0,0,0,0,0,0,0,0,0,0,0,0,0,0,0,0,0,0,
0,0,0,0,0,0,0,0,0,0,0,0,0,0,0,0,0,0,0,0,0,0,0,0,0,0,0,0,0,0,0,0,0,0,0,0,0,0,0,0,0,0,0,0,0,0,0,0,0,0,0,0,0,0,0,0,0,0,0,0,0,0,0,0,0,0,0,0,0,0,0,0,0,0,0,0,0,0,0,0,0,0,0,0,0,0,0,0,0,0,0,0,0,0,0,0,0,0,0,0,0,0,0,0,0,0,0,0,0,0,0,0,0,0,0,0,0,0,0,0,0,0,0,0,0,0,0,0,0,0,0,0,0,0,0,0,0,0,0,0,0,0,0,0,0,0,0,0,0,0,0,0,0,0,0,0,0,0,0,0,0,0,0,0,0,0,0,0,0,0,0,0,0,0,0,0,0,0,0,0,0,0,0,0,0,0,0,0,0,0,0,0,0,0,0,0,0,0,0,0,0,0,0,0,0,0,0,0,0,0,0,0,0,0,0,0,0,0,0,0,0,0,0,0,0,0,0,0,0,0,0,0,0,0,0,0,0,0,0,0,0,0,0,0,0,0,0,0,0,0,0,0,0,0,0,0,0,0,0,0,354,0,0,0,0,0,0,0,0,0,0,0,0,0,0,0,0,0,0,0,0,0,0,0,0,0,0,0,0,0,0,0,0,0,0,0,0,0,0,0,0,0,0,0,0,0,0,0,0,0,0,0,0,0,0,0,0,0,0,0,0,0,0,0,0,0,0,0,0,0,0,0,0,0,0,0,0,0,0,0,0,0,0,0,0,0,0,0,0,0,0,0,0,0,0,0,0,0,0,0,0,0,0,0,0,0,0,0,0,0,0,0,0,0,0,0,0,0,0,0,0,0,0,0,0,0,0,0,0,0,0,0,0,0,0,0,0,0,0,0,
0,0,0,0,0,0,0,0,0,0,0,0,0,0,0,0,0,0,0,0,0,0,0,0,0,0,0,0,0,0,0,0,0,0,0,0,0,0,0,0,0,0,0,0,0,0,0,0,0,0,0,0,0,0,0,0,0,0,0,0,0,0,0,0,0,0,0,0,0,0,0,0,0,0,0,0,0,0,0,0,0,0,0,0,0,0,0,0,0,0,0,0,0,0,0,0,0,0,0,0,0,0,0,0,0,0,0,0,0,0,0,0,0,0,0,0,0,0,0,0,0,0,0,0,0,0,0,0,0,0,0,0,0,0,0,0,0,0,0,0,0,0,0,0,0,0,0,0,0,0,0,0,0,0,0,0,0,0,0,0,0,0,0,0,0,0,0,0,0,0,0,0,0,0,0,0,0,0,0,0,0,0,0,0,0,0,0,0,0,0,0,0,0,0,0,0,0,0,0,0,0,0,0,0,0,343,0,329,0,0,0,0,0,0,0,0,0,0,0,0,0,0,0,0,0,0,0,0,0,0,0,0,0,0,0,0,0,0,0,0,0,0,0,0,0,0,0,0,0,0,0,0,0,0,0,0,0,0,0,0,0,0,0,0,0,0,0,0,0,0,0,0,0,0,0,0,0,0,0,0,0,0,0,0,0,0,0,0,0,0,0,0,0,0,0,0,0,0,0,0,0,0,0,0,0,0,0,0,0,0,0,0,0,0,0,0,0,0,0,0,0,0,0,0,0,0,0,0,0,0,0,0,0,0,0,0,0,0,0,0,0,0,0,0,0,0,0,0,0,0,0,0,0,0,0,345,345,330,0,0,325,0,0,0,345,345,0,0,0,0,0,0,0,0,0,0,0,0,0,0,0,0,0,0,0,0,0,0,0,0,0,0,0,0,0,0,0,0,0,0,
0,0,0,0,0,0,0,0,0,0,0,0,0,0,0,0,0,0,0,0,0,0,0,0,0,0,0,0,0,0,0,0,0,0,0,0,0,0,0,0,0,0,0,0,0,0,0,0,0,0,0,0,0,0,0,0,0,0,0,0,0,0,0,0,0,0,0,0,0,0,0,0,0,0,0,0,0,0,0,0,0,0,0,0,0,0,0,0,0,0,0,0,0,0,0,0,0,0,0,0,0,0,0,0,0,0,0,328,0,0,0,0,0,0,0,0,0,0,0,0,0,0,0,0,0,0,0,0,0,0,0,0,0,0,0,0,0,0,0,0,0,0,0,0,0,0,0,0,0,0,0,0,0,0,0,0,0,0,0,0,0,0,0,0,0,0,0,0,0,0,0,0,0,0,0,0,0,0,0,0,0,0,0,0,0,0,0,0,0,0,0,0,0,0,0,0,0,0,0,0,0,0,0,0,0,0,0,0,0,0,0,0,0,0,0,0,0,0,0,0,0,0,0,0,0,0,0,0,0,0,0,0,0,0,0,0,0,0,0,0,0,0,0,0,0,0,0,0,0,0,0,0,0,0,0,341,0,0,0,326,354,0,326,0,0,314,0,0,347,0,0,0,0,0,0,0,0,0,0,0,0,0,0,0,0,0,0,0,0,0,0,0,0,0,0,0,0,0,0,0,0,0,0,0,0,0,0,0,0,0,0,0,0,0,0,0,0,0,0,0,0,0,0,0,0,0,0,0,0,0,0,0,0,0,0,0,0,0,0,0,0,0,0,0,0,0,0,0,0,0,0,0,0,0,0,0,0,0,0,0,0,0,0,0,0,0,0,0,0,0,0,0,0,0,0,0,0,0,0,0,0,0,0,0,0,0,0,0,0,0,0,0,0,0,0,0,0,0,0,0,
0,0,0,0,0,0,0,0,0,0,0,0,0,0,0,0,0,0,0,0,0,0,0,0,0,0,0,0,0,0,0,0,0,0,0,0,0,0,0,0,0,0,0,0,343,0,0,0,0,0,0,0,0,0,0,0,0,0,0,0,0,0,0,0,0,0,0,0,0,0,0,0,0,0,0,0,0,0,0,0,0,0,0,0,0,0,0,0,0,0,0,0,0,0,0,0,0,0,0,0,0,0,0,0,0,0,0,0,0,0,0,0,0,0,0,0,0,0,0,0,0,0,0,0,0,0,0,0,0,0,0,0,0,0,0,0,0,0,0,0,0,0,0,0,0,0,0,0,0,0,0,0,0,0,0,0,0,0,0,0,0,0,0,0,0,0,0,0,0,0,0,0,0,0,0,0,0,0,0,0,0,0,353,0,0,0,0,0,0,0,0,0,0,0,0,0,0,345,0,0,0,0,0,0,0,0,0,0,0,0,0,0,0,0,0,0,0,0,0,0,0,0,0,0,0,0,0,0,0,0,0,0,0,0,0,0,0,0,0,0,0,0,0,0,0,0,0,0,0,0,0,0,0,0,0,0,0,0,0,0,0,0,0,0,0,0,0,0,0,0,0,0,0,0,0,0,0,0,0,0,0,0,0,0,0,0,0,0,0,0,0,0,0,0,0,0,0,0,0,0,0,0,0,0,0,0,0,0,0,0,0,0,0,0,0,0,0,0,0,0,0,0,0,0,0,0,0,0,0,0,0,0,0,0,0,0,0,0,0,0,0,0,0,0,0,0,0,0,0,0,0,0,0,0,0,0,0,0,0,0,0,0,0,0,0,0,0,0,0,0,0,0,0,0,0,0,0,0,0,0,0,0,0,0,0,0,0,0,0,0,0,0,0,0,0,0,0,0,0,0,
0,0,0,0,0,0,0,0,0,0,0,0,0,0,0,0,0,0,0,0,0,0,0,0,0,0,0,0,0,0,0,0,0,0,0,0,0,0,0,0,0,0,0,0,0,0,0,0,0,0,0,0,0,0,0,0,0,0,0,0,0,0,0,0,0,0,0,0,0,0,0,0,0,0,0,0,0,0,0,0,0,0,0,0,0,0,0,0,0,0,0,0,0,0,0,0,0,0,0,0,0,0,0,0,0,0,0,0,0,0,0,0,0,0,0,0,0,0,0,0,0,0,0,0,0,308,315,0,0,0,0,0,0,0,0,0,0,0,0,0,0,0,0,0,0,0,0,0,0,0,0,0,0,0,0,0,331,0,0,0,343,0,0,0,0,0,0,0,0,0,0,0,0,0,0,0,0,0,0,0,0,0,0,0,0,0,0,0,0,0,0,0,0,0,0,0,0,0,0,0,0,0,0,0,0,0,0,0,0,0,0,0,0,0,0,0,0,0,0,0,0,0,0,0,0,0,0,0,0,0,0,0,0,0,0,0,0,0,0,0,331,326,0,0,0,0,0,0,0,0,0,0,0,0,0,0,0,0,0,0,0,0,0,0,0,0,0,0,0,0,0,0,0,0,0,0,0,0,0,0,0,0,0,0,0,0,0,0,0,0,0,0,344,0,330,0,0,0,0,0,0,344,0,0,0,0,0,0,0,0,0,0,0,0,0,0,0,0,0,0,0,0,0,0,0,0,0,0,0,0,0,0,0,0,0,0,0,0,0,0,0,0,0,0,0,0,0,0,0,0,0,0,0,0,0,0,0,0,0,0,0,0,0,0,0,0,0,0,0,0,0,0,0,0,0,0,0,0,0,0,0,0,0,0,0,0,0,0,0,0,0,0,0,0,0,0,0,0,0,0,
0,0,0,0,0,0,0,0,0,0,0,0,0,0,0,0,0,0,0,0,0,0,0,0,0,0,0,0,0,0,0,0,0,0,0,0,0,0,0,0,0,0,0,0,0,0,0,0,0,0,0,0,0,0,0,0,0,0,0,0,0,0,0,0,0,0,0,0,0,0,0,0,0,0,0,0,0,0,0,0,0,0,0,0,0,0,0,0,0,0,0,343,0,0,0,0,0,0,0,0,0,0,0,0,0,0,0,0,0,0,0,0,0,0,0,0,0,0,0,0,0,0,0,0,0,0,0,0,0,0,0,0,0,0,0,0,0,0,0,0,0,0,0,0,0,0,0,0,0,0,0,0,0,0,0,0,0,0,0,0,0,0,0,0,0,0,0,0,0,0,0,0,0,0,0,0,0,0,0,0,0,0,353,0,0,0,0,0,0,0,0,0,0,0,0,0,0,0,0,0,0,0,0,0,0,0,0,0,0,0,0,0,0,0,0,0,0,0,0,0,0,0,0,0,0,0,0,0,0,0,0,0,0,0,0,0,0,0,0,0,0,0,0,0,0,0,0,0,0,0,0,0,0,0,0,0,0,0,0,0,0,0,0,0,0,0,0,0,0,0,0,0,0,0,0,0,0,0,0,0,0,0,347,347,0,0,0,0,0,0,0,0,0,0,0,0,0,0,0,0,0,0,0,0,0,0,0,0,0,0,0,0,0,0,0,0,0,0,0,0,0,0,0,0,0,0,0,0,0,0,0,0,0,0,0,0,0,0,0,0,0,0,0,0,0,0,0,0,0,0,0,0,0,0,0,0,0,0,0,0,0,0,0,0,0,0,0,0,0,0,0,0,0,0,0,0,0,0,0,0,0,0,0,0,0,0,0,0,0,0,0,0,0,0,0,0,0,0,0,0,
0,0,0,0,0,0,0,0,0,0,0,0,0,0,0,0,0,0,0,0,0,0,0,0,0,0,0,0,0,0,0,0,0,331,343,0,0,0,0,0,0,0,0,0,0,0,0,0,0,0,0,0,0,0,0,0,0,0,0,0,0,0,0,0,0,0,0,0,0,0,0,0,0,0,0,0,0,0,0,0,0,0,0,0,0,0,0,0,0,0,0,0,0,0,0,0,0,0,0,0,0,0,0,0,0,0,0,0,0,0,0,0,0,0,0,0,0,0,0,0,0,0,0,0,0,0,0,0,0,0,0,0,0,0,0,0,0,0,0,0,0,0,0,0,0,0,0,0,0,0,0,0,0,0,0,0,0,0,0,0,0,0,0,0,0,0,0,0,0,0,0,0,0,0,330,0,0,0,0,339,0,0,353,0,310,0,345,0,0,0,0,345,0,0,0,0,0,0,0,0,0,0,0,0,0,0,0,0,0,0,0,0,0,309,0,0,0,315,0,0,0,0,0,0,0,0,0,0,325,0,0,333,0,327,0,0,0,0,0,0,0,0,0,0,0,0,0,0,0,0,0,0,0,0,0,0,0,0,0,0,0,0,0,0,0,0,0,0,0,0,0,0,0,0,0,0,0,0,0,0,0,0,0,0,0,0,0,0,0,0,0,0,0,0,0,0,0,0,0,0,0,0,0,0,0,0,0,0,0,0,0,0,0,0,0,0,0,0,0,0,0,0,0,0,0,0,0,0,0,0,0,0,0,0,0,0,0,0,0,0,0,0,0,0,0,0,0,0,0,0,0,0,0,0,0,0,0,0,0,0,0,0,0,0,0,0,0,0,0,0,0,0,0,0,0,0,0,0,0,0,0,0,0,0,0,0,0,0,0,0,0,0,0,0,0,0,0,0,0,0,
0,0,0,0,0,0,0,0,0,0,0,0,0,0,0,0,0,0,0,0,0,0,0,0,0,0,0,0,0,0,0,0,0,0,0,0,0,0,0,0,0,0,0,0,0,0,0,0,0,0,0,0,0,0,0,0,0,0,0,0,0,0,0,0,0,0,0,0,0,0,0,0,0,0,0,0,0,0,0,0,0,0,0,0,0,0,0,0,0,0,0,0,0,0,0,0,0,0,0,0,0,0,0,0,0,0,0,0,0,0,0,0,0,0,0,0,0,0,0,0,0,0,0,0,0,0,0,0,0,0,0,0,0,0,0,0,0,0,0,0,0,0,0,0,0,0,0,0,0,343,0,0,0,0,0,0,0,0,0,0,0,0,0,0,0,0,0,0,0,0,0,0,0,0,0,0,0,0,0,0,0,0,0,0,0,0,0,0,0,0,0,0,0,0,0,0,0,0,0,0,0,0,0,0,0,0,0,0,0,0,0,0,0,0,0,0,0,0,0,0,0,0,0,0,0,0,0,0,0,0,0,0,0,0,0,0,0,0,0,0,0,0,0,0,0,0,0,0,0,0,0,0,0,0,0,0,0,0,0,0,0,0,0,0,0,0,0,0,0,0,0,0,0,0,0,0,0,0,0,0,0,0,0,0,0,0,0,0,0,0,0,0,0,0,0,0,0,0,0,0,0,0,0,0,0,0,0,0,0,0,0,0,0,0,0,0,0,0,0,0,0,0,0,0,0,0,0,332,0,0,0,0,344,340,0,0,0,344,0,0,0,0,0,0,0,0,0,0,0,0,0,0,0,0,0,0,0,0,0,0,0,0,0,0,0,0,0,0,0,0,0,0,0,0,0,0,0,0,0,0,0,0,0,0,0,0,0,0,0,0,0,0,0,0,0,0,0,0,0,0,
0,0,0,0,0,0,0,0,0,0,0,0,0,0,0,0,0,0,0,0,0,0,0,0,0,0,0,0,0,0,0,0,0,0,0,0,0,0,0,0,0,0,0,0,0,0,0,0,0,0,0,0,0,0,0,0,0,0,0,0,0,0,0,0,0,0,0,0,0,0,0,0,0,0,0,0,0,0,0,0,0,0,0,0,0,0,0,0,0,0,0,0,0,0,0,0,0,0,0,0,0,0,0,0,0,0,0,0,0,0,0,0,0,0,0,0,0,0,0,0,0,0,0,0,0,0,0,0,0,0,0,0,0,0,0,0,0,0,0,0,0,0,0,0,0,0,0,0,0,0,0,0,0,0,0,0,0,0,0,0,0,0,0,0,0,0,0,0,0,0,0,0,0,0,0,0,0,0,0,0,0,0,0,0,0,0,0,0,0,0,0,0,0,0,0,0,0,0,0,0,0,0,0,0,0,0,0,0,0,0,0,0,0,0,0,0,0,0,0,0,0,0,0,0,0,0,0,0,0,0,0,0,0,0,0,0,0,0,0,0,0,0,0,0,0,0,0,0,0,0,0,0,0,0,0,0,0,0,0,0,0,0,0,0,0,0,0,0,0,0,0,0,0,0,0,0,0,0,0,0,0,0,0,0,0,0,0,0,0,0,0,0,0,0,0,0,0,0,0,0,0,0,0,0,0,0,0,0,0,0,0,0,0,0,0,0,0,0,0,0,0,0,0,0,0,0,0,0,0,0,0,0,0,0,0,0,0,0,0,0,0,0,0,0,0,0,0,0,0,0,0,0,0,0,0,0,0,0,0,0,0,0,0,0,0,0,0,0,0,0,0,0,0,0,0,0,0,0,0,0,0,0,0,0,0,0,0,0,0,0,0,0,0,0,0,0,0,0,0,0,
0,0,0,0,0,0,0,0,0,0,0,0,0,0,0,0,0,0,0,0,0,0,0,0,0,0,0,0,0,0,0,0,0,0,0,0,0,0,0,0,0,0,0,0,0,0,0,0,0,0,0,0,0,0,0,0,0,0,0,0,0,0,0,0,0,0,0,0,0,0,0,0,0,0,0,0,0,0,0,0,0,0,0,343,0,326,0,0,0,0,0,0,0,0,0,0,0,0,0,0,0,0,0,0,0,0,0,0,0,0,0,0,0,0,0,0,0,0,0,0,0,0,0,0,0,0,0,0,0,0,0,0,0,0,0,0,0,0,0,0,0,0,0,0,0,0,0,0,0,0,0,0,0,0,0,0,0,0,0,0,0,0,0,0,0,0,0,0,0,0,0,0,0,0,0,0,0,0,0,0,0,0,0,0,0,0,0,0,0,0,0,0,0,0,0,0,0,0,0,0,0,0,0,0,0,0,0,0,0,0,0,0,0,0,0,0,0,0,0,0,0,0,0,0,0,0,0,0,0,0,0,0,0,0,0,0,0,0,0,0,0,0,0,0,0,0,0,0,0,0,0,0,0,345,0,0,0,0,346,0,0,0,0,0,0,342,0,0,0,0,0,0,0,0,0,0,347,0,0,312,0,0,0,0,0,0,0,0,344,0,0,0,0,0,0,0,0,0,0,0,0,0,0,0,0,342,0,0,0,0,0,342,0,0,0,0,0,0,0,0,0,0,0,0,0,0,0,0,0,0,0,0,0,0,0,0,0,0,0,0,0,0,0,0,0,0,0,0,0,0,0,0,0,0,0,0,0,0,0,0,0,0,0,0,0,0,0,0,0,0,0,0,0,0,0,0,0,0,0,0,0,0,0,0,0,0,0,0,0,0,0,0,0,0,0,0,0,0,0,0,
0,0,0,0,0,0,0,0,0,0,0,0,0,0,0,0,0,0,0,0,0,0,0,0,0,0,0,0,0,0,0,0,0,0,0,0,0,0,0,0,0,0,0,0,0,0,0,0,0,0,0,0,0,0,0,0,0,0,0,0,0,0,0,0,0,0,0,0,0,0,0,0,0,0,0,0,0,0,0,0,0,0,0,0,0,0,0,0,0,0,0,0,0,0,0,0,0,0,0,0,0,0,0,0,0,0,0,0,0,0,0,0,0,0,0,0,0,0,0,0,0,0,0,0,0,0,0,0,0,0,0,0,0,0,0,0,0,0,0,0,0,0,0,0,0,0,0,0,0,0,0,0,0,0,0,0,0,0,0,0,0,0,0,0,0,0,0,0,0,0,0,0,0,0,0,0,0,0,0,0,0,0,0,0,0,0,0,0,0,0,0,0,0,0,0,0,0,0,0,0,0,0,0,0,0,0,0,0,0,0,0,0,0,0,0,0,0,0,0,0,0,0,0,0,0,0,0,0,0,0,0,0,0,0,0,0,0,0,0,0,0,0,0,0,0,0,0,0,0,0,0,0,0,0,0,0,0,0,0,0,0,0,0,0,0,0,0,0,0,0,0,0,0,0,0,0,347,0,0,0,0,0,0,0,0,0,0,0,0,0,0,0,0,0,0,0,0,0,0,0,0,0,0,0,0,0,0,0,0,0,0,0,0,0,0,0,0,0,0,0,0,0,0,0,0,0,0,0,0,0,0,0,0,0,0,0,0,0,0,0,0,0,0,0,0,0,0,0,0,0,0,0,0,0,0,0,0,0,0,0,0,0,0,0,0,0,0,0,0,0,0,0,0,0,0,0,0,0,0,0,0,0,0,0,0,0,0,341,0,0,0,0,0,0,0,0,0,0,0,0,
330,0,0,0,0,0,0,0,343,0,0,0,0,0,0,0,341,0,0,0,0,0,0,0,0,0,0,0,0,0,0,0,0,0,0,0,0,0,0,0,0,0,0,0,0,0,0,0,0,0,0,0,0,0,0,0,0,0,0,0,0,0,0,0,0,0,0,0,0,0,0,0,0,0,0,0,0,0,0,0,0,0,0,0,0,0,0,0,0,0,0,0,0,0,0,0,0,0,0,0,0,0,0,0,0,0,0,0,0,0,0,0,0,0,0,0,0,0,0,0,0,0,0,0,0,0,0,0,0,0,0,0,0,0,0,0,0,0,0,0,0,0,0,0,0,0,0,0,0,0,0,0,0,0,0,0,0,0,0,0,0,0,0,0,0,0,0,0,0,0,0,0,0,0,0,0,0,0,0,0,0,0,0,0,0,0,0,0,0,0,0,0,0,0,0,0,0,0,0,0,0,0,0,0,0,0,0,0,0,0,0,0,0,0,0,0,0,0,0,0,0,0,0,0,0,0,0,0,0,0,0,0,0,0,0,0,0,0,0,0,0,0,0,0,0,0,0,0,0,0,0,0,0,0,0,0,0,0,0,0,0,0,0,0,0,0,0,0,329,0,0,0,0,0,0,0,0,0,0,0,0,0,0,0,0,0,0,0,0,0,0,0,0,0,0,0,0,0,0,0,0,0,0,0,0,0,0,0,0,0,0,0,0,0,0,0,0,0,0,0,0,0,0,0,0,0,0,0,0,0,0,0,0,0,0,0,0,0,0,0,0,0,0,0,0,0,0,0,0,0,0,0,0,0,0,0,0,0,0,0,0,0,0,0,0,0,0,0,0,0,0,0,0,0,0,0,0,0,0,0,0,0,0,0,0,0,0,0,0,0,0,0,0,0,0,0,0,0,0,0,
0,0,0,0,0,0,0,0,0,0,0,0,0,0,0,0,0,0,0,0,0,0,0,0,0,0,0,0,0,0,0,0,0,0,0,0,0,0,0,0,0,0,0,0,0,0,0,0,0,0,0,0,0,0,0,0,0,0,0,0,0,0,0,0,0,0,0,0,0,0,0,0,0,0,0,0,0,0,0,0,0,0,0,0,0,0,0,0,0,0,0,0,0,0,0,0,0,0,0,0,0,0,0,0,0,0,0,0,0,0,0,0,0,0,0,0,0,0,0,0,0,0,0,0,0,0,0,0,0,0,0,0,0,0,0,0,0,0,0,0,0,0,0,0,0,0,0,0,0,0,0,0,0,0,0,0,0,0,0,0,0,0,0,0,0,0,0,0,0,0,0,0,0,0,0,0,0,0,0,0,0,0,0,0,0,0,0,0,0,0,0,0,0,0,0,0,0,0,0,0,0,0,0,0,0,0,0,0,0,0,0,0,0,0,0,0,0,0,0,0,0,0,0,0,0,0,0,0,0,0,0,0,0,0,0,0,0,0,0,0,0,0,0,0,0,0,0,0,0,0,0,0,0,0,0,0,0,0,0,0,0,0,0,0,0,0,0,0,0,0,0,0,0,0,0,0,0,0,0,0,0,0,0,0,0,0,0,0,0,0,0,0,0,0,0,0,0,0,0,0,0,0,0,0,0,0,0,0,0,0,0,0,0,0,0,0,0,0,0,0,0,0,0,0,0,0,0,0,0,0,0,0,0,0,0,0,0,0,0,0,0,0,0,0,0,0,0,0,0,0,0,0,0,0,0,0,0,0,0,0,0,0,0,0,0,0,0,0,0,0,0,0,0,0,0,0,0,0,0,0,0,0,0,0,0,0,0,0,0,0,0,0,0,0,0,0,0,0,0,0,
0,0,0,0,0,0,0,0,0,0,0,0,0,0,0,0,0,0,0,0,0,0,0,0,0,0,0,0,0,0,0,0,0,0,0,0,0,0,0,0,0,0,0,0,0,0,0,0,0,0,0,0,0,0,0,0,0,0,0,0,0,0,0,0,0,0,0,0,0,0,0,0,0,0,0,0,0,0,0,0,0,0,0,0,0,0,0,0,0,0,0,0,0,0,0,0,0,0,0,0,0,0,0,0,0,0,0,0,0,0,0,0,0,0,0,0,0,0,0,0,0,0,0,0,0,0,0,0,0,0,0,0,0,0,0,0,0,0,0,0,0,0,0,0,0,0,0,0,0,0,0,0,205,206,205,206,206,0,0,0,0,70,71,0,0,0,0,0,0,0,0,0,0,0,0,0,0,0,0,0,0,0,0,0,0,0,0,0,0,0,0,0,0,0,0,0,0,0,0,0,345,0,0,0,0,0,0,0,0,0,0,0,0,0,0,0,0,0,0,0,0,0,0,0,0,0,0,0,0,0,0,0,0,0,0,0,0,0,0,0,0,0,0,0,0,0,0,0,0,0,0,0,0,0,0,0,0,0,0,0,0,0,0,0,0,0,0,0,0,0,0,0,0,0,0,0,0,0,0,0,0,0,0,0,0,0,0,0,0,0,0,0,0,0,0,0,0,0,0,0,0,0,0,0,0,0,0,0,0,0,0,0,0,0,0,0,0,344,0,0,0,0,0,0,0,0,0,0,0,0,0,0,0,0,0,0,0,0,0,0,0,0,0,0,0,0,0,0,0,0,0,0,0,0,0,0,0,0,0,0,0,0,0,0,0,0,0,0,0,0,0,0,0,0,0,0,0,0,0,0,0,0,0,0,0,0,0,0,0,0,0,0,0,0,0,0,0,0,0,0,
0,0,0,0,0,0,0,0,0,0,0,0,0,0,0,0,0,0,0,0,0,0,0,0,0,0,0,0,0,0,0,0,0,0,0,0,0,0,0,0,0,0,0,0,0,0,0,0,0,0,0,0,0,0,0,0,0,0,0,0,0,0,0,0,0,0,0,0,0,0,343,0,332,0,0,0,0,0,0,0,0,0,0,0,0,0,0,0,0,0,0,0,0,0,0,0,0,0,0,0,0,0,0,0,0,0,0,0,0,0,0,0,0,0,0,0,0,0,0,0,0,0,0,0,0,0,0,0,0,0,0,0,0,0,0,0,0,0,0,0,0,0,0,0,0,0,0,0,0,0,0,0,225,226,225,226,226,0,0,0,0,0,0,0,0,0,0,0,0,0,0,0,0,0,0,0,0,0,0,0,0,0,0,0,0,0,0,0,0,0,0,0,0,0,0,0,0,0,0,0,0,0,0,0,0,0,0,0,0,0,0,0,0,0,0,0,0,0,0,0,0,0,0,0,0,0,0,0,0,0,0,0,0,0,0,0,0,0,0,0,0,0,0,0,0,0,0,0,0,0,0,0,0,0,0,0,0,0,0,0,0,0,0,0,0,0,0,0,0,0,0,0,0,0,0,0,0,0,0,0,0,0,0,0,0,0,0,0,0,0,0,0,0,0,0,0,0,0,0,0,0,0,0,0,0,0,0,0,0,0,0,0,0,0,0,0,0,0,0,0,0,0,0,0,0,0,0,0,0,0,0,0,0,0,0,0,0,0,0,0,0,0,0,0,0,0,0,0,0,0,0,0,0,0,0,0,0,0,0,0,0,0,0,0,0,0,0,0,0,0,0,0,0,0,0,0,0,0,0,0,0,0,0,0,0,0,0,0,0,0,0,0,0,0,0,0,0,0,0,0,
0,0,0,0,0,0,0,0,0,0,0,0,0,0,0,0,0,0,0,0,0,0,0,0,0,0,0,0,0,0,0,0,0,0,0,0,0,0,0,0,0,0,0,0,0,0,0,0,0,0,0,0,0,0,0,0,0,0,0,0,0,0,0,0,0,0,0,0,0,0,0,0,0,0,0,0,0,0,0,0,0,0,0,0,0,0,0,0,0,0,0,0,0,0,0,0,0,0,0,0,0,0,0,0,0,0,0,0,0,0,0,0,0,0,0,0,0,0,0,0,0,0,0,0,0,0,0,0,0,0,0,0,0,0,0,0,0,0,0,0,0,0,0,0,0,0,0,0,0,0,0,0,0,0,0,0,0,0,0,0,0,0,0,0,0,0,0,0,0,0,0,0,0,0,0,0,0,0,0,0,0,0,0,0,0,0,0,0,0,0,0,0,0,0,0,0,0,0,0,0,0,0,0,0,0,0,0,0,0,0,0,0,0,0,0,0,0,0,0,0,0,0,0,0,0,0,0,0,0,0,0,0,0,0,0,0,0,0,0,0,0,0,0,0,0,0,0,0,0,0,0,0,0,0,0,0,0,0,0,0,0,0,0,0,0,0,0,0,0,0,0,0,0,0,0,0,0,0,0,0,0,0,0,0,0,0,0,0,0,165,165,165,165,165,165,165,165,165,165,165,165,165,165,165,166,0,0,165,165,165,166,0,0,165,165,165,166,0,0,0,0,0,0,0,0,0,0,0,0,0,0,0,0,0,0,0,0,0,0,0,0,0,0,0,0,0,0,0,0,0,0,0,0,0,0,0,0,0,0,0,0,0,0,0,0,0,0,0,0,0,0,0,0,0,0,0,0,0,0,0,0,0,0,0,0,0,0,0,0,0,0,0,0,0,0,0,0,0,0,0
</data>
 </layer>
 <layer id="7" name="tileLayer" width="400" height="20">
  <data encoding="csv">
0,0,0,0,0,0,0,0,0,0,0,0,0,0,0,0,0,0,0,0,0,0,0,0,0,0,0,0,0,0,0,0,0,0,0,0,0,0,0,0,0,0,0,0,0,0,0,0,0,0,0,0,0,0,0,0,0,0,0,0,0,0,0,0,0,0,0,0,0,0,0,0,0,0,0,0,0,0,0,0,0,0,0,0,0,0,0,0,0,0,0,0,0,0,0,0,0,0,0,0,0,0,0,0,0,0,0,0,0,0,0,0,0,0,0,0,0,0,0,0,0,0,0,0,0,0,0,0,0,0,0,0,0,0,0,0,0,0,0,0,0,0,0,0,0,0,0,0,0,0,0,0,0,0,0,0,0,0,0,0,0,0,0,0,0,0,0,0,0,0,0,0,0,0,0,0,0,0,0,0,0,0,0,0,0,0,0,0,0,0,0,0,0,0,0,0,0,0,0,0,0,0,0,0,0,0,0,0,0,0,0,0,0,0,0,0,0,0,0,0,0,0,0,0,0,0,0,0,0,0,0,0,0,0,0,0,0,0,0,0,0,0,0,0,0,0,0,0,0,0,0,0,0,0,0,0,0,0,0,0,0,0,0,0,0,0,0,0,0,0,0,0,0,0,0,0,0,0,0,0,0,0,0,0,0,0,0,0,0,0,0,0,0,0,0,0,0,0,0,0,0,0,0,0,0,0,0,0,0,0,0,0,0,0,0,0,0,0,0,0,0,0,0,0,0,0,0,0,0,0,0,0,0,0,0,0,0,0,0,0,0,0,0,0,0,0,0,0,0,0,0,0,0,0,0,0,0,0,0,0,0,0,0,0,0,0,0,0,0,0,0,0,0,0,0,0,0,0,0,0,0,0,0,0,0,0,0,0,0,0,0,0,0,0,0,0,0,0,0,0,
0,0,0,0,0,0,0,0,0,0,0,0,0,0,0,0,0,0,0,0,0,0,0,0,0,0,0,0,0,0,0,0,0,0,0,0,0,0,0,0,0,0,0,0,0,0,0,0,0,0,0,0,0,0,0,0,0,0,0,0,0,0,0,0,0,0,0,0,0,0,0,0,0,0,0,0,0,0,0,0,0,0,0,0,0,0,0,0,0,0,0,0,0,0,0,0,0,0,0,0,0,0,0,0,0,0,0,0,0,0,0,0,0,0,0,0,0,0,0,0,0,0,0,0,0,0,0,0,0,0,0,0,0,0,0,0,0,0,0,0,0,0,0,0,0,0,0,0,0,0,0,0,0,0,0,0,0,0,0,0,0,0,0,0,0,0,0,0,0,0,0,0,0,0,0,0,0,0,0,0,0,0,0,0,0,0,0,0,0,0,0,0,0,0,0,0,0,0,0,0,0,0,0,0,0,0,0,0,0,0,0,0,0,0,0,0,0,0,0,0,0,0,0,0,0,0,0,0,0,0,0,0,0,0,0,0,0,0,0,0,0,0,0,0,0,0,0,0,0,0,0,0,0,0,0,0,0,0,0,0,0,0,0,0,0,0,0,0,0,0,0,0,0,0,0,0,0,0,0,0,0,0,0,0,0,0,0,0,0,0,0,0,0,0,0,0,0,0,0,0,0,0,0,0,0,0,0,0,0,0,0,0,0,0,0,0,0,0,0,0,0,0,0,0,0,0,0,0,0,0,0,0,0,0,0,0,0,0,0,0,0,0,0,0,0,0,0,0,0,0,0,0,0,0,0,0,0,0,0,0,0,0,0,0,0,0,0,0,0,0,0,0,0,0,0,0,0,0,0,0,0,0,0,0,0,0,0,0,0,0,0,0,0,0,0,0,0,0,0,0,
0,0,0,0,0,0,0,0,0,0,0,0,0,0,0,0,0,0,0,0,0,0,0,0,0,0,0,0,0,0,0,0,0,0,0,0,0,0,0,0,0,0,0,0,0,0,0,0,0,0,0,0,0,0,0,0,0,0,0,0,0,0,0,0,0,0,0,0,0,0,0,0,0,0,0,0,0,0,0,0,0,0,0,0,0,0,0,0,0,0,0,0,0,0,0,0,0,0,0,0,0,0,0,0,0,0,0,0,0,0,0,0,0,0,0,0,0,0,0,0,0,0,0,0,0,0,0,0,0,0,0,0,0,0,0,0,0,0,0,0,0,0,0,0,0,0,0,0,0,0,0,0,0,0,0,0,0,0,0,0,0,0,0,0,0,0,0,0,0,0,0,0,0,0,0,0,0,0,0,0,0,0,0,0,0,0,0,0,0,0,0,0,0,0,0,0,0,0,0,0,0,0,0,0,0,0,0,0,0,0,0,0,0,0,0,0,0,0,0,0,0,0,0,0,0,0,0,0,0,0,0,0,0,0,0,0,0,0,0,0,0,0,0,0,0,0,0,0,0,0,0,0,0,0,0,0,0,0,0,0,0,0,0,0,0,0,0,0,0,0,0,0,0,0,0,0,0,0,0,0,0,0,0,0,0,0,0,0,0,0,0,0,0,0,0,0,0,0,0,0,0,0,0,0,0,0,0,0,0,0,0,0,0,0,0,0,0,0,0,0,0,0,0,0,0,0,0,0,0,0,0,0,0,0,0,0,0,0,0,0,0,0,0,0,0,0,0,0,0,0,0,0,0,0,0,0,0,0,0,0,0,0,0,0,0,0,0,0,0,0,0,0,0,0,0,0,0,0,0,0,0,0,0,0,0,0,0,0,0,0,0,0,0,0,0,0,0,0,0,0,
0,0,0,0,0,0,0,0,0,0,0,0,0,0,0,0,0,0,0,0,0,0,0,0,0,0,0,0,0,0,0,0,0,0,0,0,0,0,0,0,0,0,0,0,0,0,0,0,0,0,0,0,0,0,0,0,0,0,0,0,0,0,0,0,0,0,0,0,0,0,0,0,0,0,0,0,0,0,0,0,0,0,0,0,0,0,0,0,0,0,0,0,0,0,0,0,0,0,0,0,0,0,0,0,0,0,0,0,0,0,0,0,0,0,0,0,0,0,0,0,0,0,0,0,0,0,0,0,0,0,0,0,0,0,0,0,0,0,0,0,0,0,0,0,0,0,0,0,0,0,0,0,0,0,0,0,0,0,0,0,0,0,0,0,0,0,0,0,0,0,0,0,0,0,0,0,0,0,0,0,0,0,0,0,0,0,0,0,0,0,0,0,0,0,0,0,0,0,0,0,0,0,0,0,0,0,0,0,0,0,0,0,0,0,0,0,0,0,0,0,0,0,0,0,0,0,0,0,0,0,0,0,0,0,0,0,0,0,0,0,0,0,0,0,0,0,0,0,0,0,0,0,0,0,0,0,0,0,0,0,0,0,0,0,0,0,0,0,0,0,0,0,0,0,0,0,0,0,0,0,0,0,0,0,0,0,0,0,0,0,0,0,0,0,0,0,0,0,0,0,0,0,0,0,0,0,0,0,0,0,0,0,0,0,0,0,0,0,0,0,0,0,0,0,0,0,0,0,0,0,0,0,0,0,0,0,0,0,0,0,0,0,0,0,0,0,0,0,0,0,0,0,0,0,0,0,0,0,0,0,0,0,0,0,0,0,0,0,0,187,69,188,0,0,0,0,0,0,0,0,0,0,0,0,0,0,0,0,0,0,0,0,0,0,0,0,0,0,0,0,
0,0,0,0,0,0,0,0,0,0,0,0,0,0,0,0,0,0,0,0,0,0,0,0,0,0,0,0,0,0,0,0,0,0,0,0,0,0,0,0,0,0,0,0,0,0,0,0,0,0,0,0,0,0,0,0,0,0,0,0,0,0,0,0,0,0,0,0,0,0,0,0,0,0,0,0,0,0,0,0,0,0,0,0,0,0,0,0,0,0,0,0,0,0,0,0,0,0,0,0,0,0,0,0,0,0,0,0,0,0,0,0,0,0,0,0,0,0,0,0,0,0,0,0,0,0,0,0,0,0,0,0,0,0,0,0,0,0,0,0,0,0,0,0,0,0,0,0,0,0,0,0,0,0,0,0,0,0,0,0,0,0,0,0,0,0,0,0,0,0,0,0,0,0,0,0,0,0,0,0,0,0,0,0,0,0,0,0,0,0,0,0,0,0,0,0,0,0,0,0,0,0,0,0,0,0,0,0,0,0,0,0,0,0,0,0,0,0,0,0,0,0,0,0,0,0,0,0,0,0,0,0,0,0,0,0,0,0,0,0,0,0,0,0,0,0,0,0,0,0,0,0,0,0,0,0,0,0,0,0,0,0,0,0,0,0,0,0,0,0,0,0,0,0,0,0,0,0,0,0,0,0,0,0,0,0,0,0,0,0,0,0,0,0,0,0,0,0,0,0,0,0,0,0,0,0,0,0,0,0,0,0,0,0,0,0,0,0,0,0,0,0,0,0,0,0,0,0,0,0,0,0,0,0,0,0,0,0,0,0,0,0,0,0,0,0,0,0,0,0,0,0,0,0,0,0,0,0,0,0,0,0,0,0,0,0,0,0,0,207,169,208,0,0,0,0,0,0,0,0,0,0,0,0,0,0,0,0,0,0,0,0,0,0,0,0,0,0,0,0,
0,0,0,0,0,0,0,0,0,0,0,0,0,0,0,0,0,0,0,0,0,0,0,0,0,0,0,0,0,0,0,0,0,0,0,0,0,0,0,0,0,0,0,0,0,0,0,0,0,0,0,0,0,0,0,0,0,0,0,0,0,0,0,0,0,0,0,0,0,0,0,0,0,0,0,0,0,0,0,0,0,0,0,0,0,0,0,0,0,0,0,0,0,0,0,0,0,0,0,0,0,0,0,0,0,0,0,0,0,0,0,0,0,0,0,0,0,0,0,0,0,0,0,0,0,0,0,0,0,0,0,0,0,0,0,0,0,0,0,0,0,0,0,0,0,0,0,0,0,0,0,0,0,0,0,0,0,0,0,0,0,0,0,0,0,0,0,0,0,0,0,0,0,0,0,0,0,0,0,0,0,0,0,0,0,0,0,0,0,0,0,0,0,0,0,0,0,0,0,0,0,0,0,0,0,0,0,0,0,0,0,0,0,0,0,0,0,0,0,0,0,0,0,0,0,0,0,0,0,0,0,0,0,0,0,0,0,0,0,0,0,0,0,0,0,0,0,0,0,0,0,0,0,0,0,0,0,0,0,0,0,0,0,0,0,0,0,0,0,0,0,0,0,0,0,0,0,0,0,0,0,0,0,0,0,0,0,0,0,0,0,0,0,0,0,0,0,0,0,0,0,0,0,0,0,0,0,0,0,0,0,0,0,0,0,0,0,0,0,0,0,0,0,0,0,0,0,0,0,0,0,0,0,0,0,0,0,0,0,0,0,0,0,0,0,0,0,0,0,0,0,0,0,0,0,0,0,0,0,0,0,0,0,0,0,0,0,0,0,0,0,0,0,0,0,0,0,0,0,0,0,0,0,0,0,0,0,0,0,0,0,0,0,0,0,0,0,0,0,0,
0,0,0,0,0,0,0,0,0,0,0,0,0,0,0,0,0,0,0,0,0,0,0,0,0,0,0,0,0,0,0,0,0,0,0,0,0,0,0,0,0,0,0,0,0,0,0,0,0,0,0,0,0,0,0,0,0,0,0,0,0,0,0,0,0,0,0,0,0,0,0,0,0,0,0,0,0,0,0,0,0,0,0,0,0,0,0,0,0,0,0,0,0,0,0,0,0,0,0,0,0,0,0,0,0,0,0,0,0,0,0,0,0,0,0,0,0,0,0,0,0,0,0,0,0,0,0,0,0,0,0,0,0,0,0,0,0,0,0,0,0,0,0,0,0,0,0,0,0,0,0,0,0,0,0,0,0,0,0,0,0,0,0,0,0,0,0,0,0,0,0,0,0,0,0,0,0,0,0,0,0,0,0,0,0,0,0,0,0,0,0,0,0,0,0,0,0,0,0,0,0,0,0,0,0,189,190,191,192,193,194,0,0,0,0,0,0,0,0,0,0,0,0,0,0,0,0,0,0,0,0,0,0,0,0,0,0,0,0,0,0,0,0,0,0,0,0,0,0,0,0,0,0,0,0,0,0,0,0,0,0,0,0,0,0,0,0,0,0,0,0,0,0,0,0,0,0,0,0,0,0,0,0,0,0,0,0,0,0,0,0,0,0,0,0,0,0,0,0,0,0,0,0,0,0,0,0,0,0,0,0,0,0,0,0,0,0,0,0,0,0,0,0,0,0,0,0,0,0,0,0,0,0,0,0,0,0,0,0,0,0,0,0,0,0,0,0,0,0,0,0,0,0,0,189,190,190,191,190,191,192,190,191,192,193,194,0,0,0,0,0,0,0,0,0,0,0,0,0,0,0,0,0,0,0,0,0,0,0,0,0,0,0,0,0,0,0,0,0,0,
0,0,0,0,0,0,0,0,0,0,0,0,0,0,0,0,0,0,0,0,0,0,0,0,0,0,0,0,0,0,0,0,0,0,0,0,0,0,0,0,0,0,0,0,0,0,0,0,0,0,0,0,0,0,0,0,0,0,0,0,0,0,0,0,0,0,0,0,0,0,0,0,0,0,0,0,0,0,0,0,0,0,0,0,0,0,0,0,0,0,0,0,0,0,0,0,0,0,0,0,0,0,0,0,0,189,190,190,191,192,193,191,190,191,192,193,194,0,0,0,0,0,0,0,0,0,0,0,0,0,0,0,0,0,0,0,0,0,0,0,0,0,0,0,0,0,0,0,0,0,0,0,0,0,0,0,0,0,0,0,0,0,0,0,0,0,0,0,0,0,0,0,0,0,0,0,0,0,0,0,0,0,0,0,0,0,0,0,0,0,0,0,0,0,0,0,0,0,0,0,0,0,0,0,0,209,210,211,212,213,214,0,0,0,0,0,0,0,0,0,0,0,0,0,0,0,0,0,0,0,0,0,0,0,0,0,0,0,0,0,0,0,0,0,0,0,0,0,0,0,0,0,0,67,68,69,70,71,69,70,71,69,70,71,69,70,71,71,71,241,242,0,0,0,0,0,0,0,0,0,0,0,0,0,0,0,0,0,0,0,0,0,0,0,0,0,0,0,0,0,0,0,0,0,0,0,0,0,0,0,0,0,0,0,0,0,0,0,0,0,0,0,0,0,0,0,0,0,0,0,0,0,0,0,0,0,0,0,0,0,0,0,0,0,0,0,0,0,0,0,0,0,0,0,209,210,210,211,210,211,212,210,211,212,213,214,0,0,0,0,0,0,0,0,0,0,0,0,0,0,0,0,0,0,0,0,0,0,0,0,0,0,0,0,0,0,0,0,0,0,
0,0,0,0,0,0,0,0,0,0,0,0,0,0,0,0,0,0,0,0,0,0,0,0,0,0,0,0,0,0,0,0,0,0,0,0,0,0,0,0,0,0,67,68,69,70,85,165,166,165,166,165,166,165,166,86,68,69,70,241,242,0,0,0,0,0,0,0,0,0,0,0,0,0,0,0,0,0,0,0,0,0,0,0,0,0,0,0,0,0,0,0,0,0,0,0,0,0,0,0,0,0,0,0,0,209,210,210,211,212,213,211,210,211,212,213,214,0,0,0,0,0,0,0,0,0,0,0,0,0,0,0,0,0,0,0,0,0,0,0,0,0,0,0,0,0,0,0,0,0,0,0,0,0,0,0,0,0,0,0,0,0,0,0,0,0,0,0,0,0,0,0,0,0,0,0,0,0,0,0,0,0,0,0,0,0,0,0,0,0,0,0,0,0,0,0,0,187,188,0,0,0,0,0,0,0,0,0,0,0,0,0,0,0,0,0,0,0,0,0,187,188,0,0,0,0,0,0,0,0,0,0,0,0,0,0,0,0,0,0,0,0,0,0,0,0,0,0,0,0,0,0,0,87,88,89,90,91,89,90,91,89,90,91,89,90,91,90,111,261,262,0,0,0,0,0,0,0,0,0,0,0,0,0,0,0,0,0,0,0,0,0,0,0,0,0,0,0,0,0,0,0,0,0,0,0,0,0,0,0,0,0,0,0,0,0,0,0,0,0,0,0,0,0,0,0,0,0,0,0,0,0,0,0,0,0,0,0,0,0,0,0,0,0,0,0,0,0,0,0,0,0,0,0,0,0,0,0,0,0,0,0,0,0,0,0,0,0,0,0,0,0,0,0,0,0,0,0,0,0,0,0,0,0,0,0,0,0,0,0,0,0,0,0,0,0,0,0,0,0,
0,0,0,0,0,0,0,0,0,0,0,0,0,0,0,0,0,0,0,0,0,0,0,0,0,0,0,0,0,0,0,0,0,0,0,0,0,0,0,0,0,0,87,88,89,90,105,185,186,185,186,185,186,185,186,106,88,89,90,261,262,0,0,0,0,0,0,0,0,0,0,0,0,0,0,0,0,0,0,0,0,0,0,0,0,0,0,0,0,0,0,0,0,0,0,0,0,0,0,0,0,0,0,0,0,0,0,0,0,0,0,0,0,0,0,0,0,0,0,0,0,0,67,68,69,70,68,69,70,71,68,69,70,71,241,242,0,0,0,0,0,0,0,0,0,0,0,0,0,0,0,0,0,0,0,189,190,191,192,193,194,0,0,0,0,0,0,0,0,0,0,0,0,0,0,0,0,0,0,0,0,0,0,0,0,0,0,0,0,0,0,0,0,0,0,0,0,207,208,0,0,0,0,0,0,0,0,0,0,0,0,0,0,0,0,0,0,0,0,0,0,0,0,0,0,0,0,0,0,0,0,0,0,0,0,0,0,0,0,189,190,191,192,193,194,0,0,0,0,0,0,0,0,79,80,81,82,83,84,79,80,79,80,81,82,83,253,110,111,281,282,241,242,0,0,0,0,0,0,0,0,0,0,0,0,0,0,0,0,0,0,0,189,190,191,192,193,192,193,192,193,194,0,0,0,0,0,0,0,0,0,0,0,0,0,0,0,0,0,0,0,0,0,0,0,0,0,0,0,0,0,0,0,0,0,0,0,0,0,0,0,0,0,0,0,0,0,0,0,0,0,0,0,0,0,0,0,0,0,0,0,0,0,0,0,0,0,0,0,0,0,0,0,0,0,0,0,0,0,0,0,0,0,0,0,0,0,0,0,0,0,0,0,0,0,0,0,0,0,0,
0,0,0,0,0,0,0,0,0,0,0,0,0,0,0,0,0,0,0,0,0,0,0,0,0,0,0,0,0,0,0,0,0,0,0,0,0,0,0,0,0,0,107,108,88,89,90,91,88,89,90,91,88,89,90,91,108,88,89,281,282,241,242,0,0,0,0,0,0,0,0,0,0,0,0,0,0,0,0,0,0,0,0,0,0,0,0,0,0,0,0,187,188,0,0,0,0,0,0,0,0,0,0,0,0,0,0,0,0,0,0,0,0,0,0,0,0,0,0,0,0,0,87,88,89,90,91,88,89,90,88,89,90,91,261,262,0,0,0,0,0,0,0,0,0,0,0,0,0,0,0,0,0,0,0,209,210,211,212,213,214,0,0,0,0,0,0,0,0,0,0,0,0,0,0,0,0,0,0,0,0,0,0,0,0,0,0,0,0,0,0,0,0,0,0,0,0,0,0,0,0,0,0,0,0,0,0,0,0,0,0,0,0,0,0,0,0,0,0,0,0,0,0,0,0,0,0,0,0,0,0,0,0,0,0,0,0,0,0,209,210,211,212,213,214,0,0,0,0,0,0,0,0,99,100,101,102,103,104,99,100,99,100,101,102,103,199,130,90,91,302,261,262,0,0,0,0,0,0,0,0,0,187,188,0,0,0,0,0,0,0,0,209,210,211,212,213,212,213,212,213,214,0,0,0,0,0,0,0,0,0,0,0,0,0,0,0,0,0,0,0,0,0,0,0,0,0,0,0,0,0,0,0,0,0,0,0,0,0,0,0,0,0,0,0,0,0,0,0,0,0,0,0,0,0,0,0,0,0,0,0,0,0,0,0,0,0,0,0,0,0,0,0,0,0,0,0,0,0,0,0,0,0,0,0,0,0,0,0,0,0,0,0,0,0,0,0,0,0,0,
0,0,0,0,0,0,0,0,0,0,0,0,0,0,0,0,0,0,0,0,0,0,0,0,0,0,0,0,0,0,0,0,189,190,191,192,193,194,0,0,0,0,127,128,108,109,110,111,108,109,110,111,108,109,110,111,128,108,109,110,111,261,262,0,0,0,0,0,0,0,0,0,0,0,0,0,0,0,0,0,0,0,0,0,0,0,0,0,0,0,0,207,208,0,0,0,0,0,0,0,215,216,0,0,0,0,0,0,0,0,0,0,0,0,0,0,0,0,0,0,0,0,107,108,109,110,111,108,109,110,108,109,110,111,281,282,241,242,0,0,0,0,0,0,0,0,0,0,0,0,0,0,0,0,0,0,0,0,0,0,0,0,0,0,0,0,0,239,240,68,69,70,71,68,69,70,71,68,69,70,71,68,69,70,68,69,70,71,68,69,70,71,241,242,0,0,0,0,0,0,0,0,0,0,0,0,0,0,0,0,0,0,67,68,69,68,69,70,71,245,245,245,245,246,70,68,69,70,71,68,69,70,71,71,72,0,0,0,0,0,0,0,0,0,0,0,0,0,0,0,0,0,0,0,0,0,0,0,0,0,0,0,0,0,0,0,79,79,79,79,253,89,261,241,242,0,0,0,0,0,0,0,207,208,0,0,0,0,0,0,0,0,0,0,0,0,0,0,0,0,0,0,0,0,0,0,0,0,0,0,0,0,0,0,0,0,0,0,0,0,0,0,0,0,0,0,0,0,0,0,0,0,0,0,0,0,0,0,0,0,0,0,0,0,0,0,0,0,0,0,0,0,0,0,0,0,0,0,0,0,0,0,0,0,0,0,0,0,0,0,0,0,0,0,0,0,0,0,0,0,0,0,0,0,0,0,0,0,0,0,0,0,0,0,0,0,0,0,0,0,
0,0,0,0,0,0,0,0,0,0,0,0,0,0,187,188,0,0,0,0,0,0,0,0,0,0,0,0,0,0,0,0,209,210,211,212,213,214,0,0,0,0,147,148,128,129,130,131,128,129,130,131,128,129,130,131,148,128,129,88,89,281,282,241,242,0,0,0,0,0,0,0,0,0,0,0,0,0,0,0,0,0,0,0,0,0,0,0,0,0,0,0,0,0,0,0,0,0,0,0,235,236,0,0,0,0,0,0,0,0,0,0,0,0,0,0,0,0,0,0,0,0,127,128,129,130,131,128,129,130,128,129,130,88,89,90,261,262,0,0,0,0,0,0,0,0,0,0,0,187,188,0,0,0,0,0,0,0,0,0,0,0,0,0,0,0,0,259,260,88,89,90,91,88,89,90,91,88,89,90,91,88,89,90,88,89,90,91,88,89,90,91,261,262,0,0,0,0,0,0,0,0,0,0,0,0,0,0,0,0,0,0,87,88,89,88,89,90,91,265,265,265,265,266,90,88,89,90,91,88,89,90,91,91,92,0,0,0,0,0,0,0,0,0,0,0,0,0,0,0,0,0,0,0,0,0,0,0,0,0,0,0,0,0,0,0,0,0,0,0,87,109,110,261,262,0,0,0,0,0,0,0,0,0,0,0,0,0,0,0,0,0,0,0,0,0,0,0,0,0,0,0,0,0,0,0,0,0,0,0,0,0,0,0,0,0,0,0,0,0,0,0,0,0,0,239,240,68,69,70,71,68,69,70,71,69,70,71,69,70,71,70,71,241,242,0,0,0,0,0,0,0,0,0,0,0,0,0,0,0,0,0,0,0,0,0,0,0,0,0,0,0,0,0,0,0,0,0,0,0,0,0,0,0,0,0,0,0,0,0,0,0,0,0,0,0,0,0,0,0,
0,0,0,0,0,0,0,0,0,0,0,0,0,0,207,208,0,0,0,0,0,0,0,0,0,0,0,0,0,0,0,0,0,0,0,0,0,0,0,0,0,0,107,108,148,149,150,151,148,149,150,151,148,149,150,151,108,148,149,108,109,110,111,261,262,0,0,0,0,0,0,0,0,0,0,0,0,0,0,0,0,0,0,0,0,0,0,0,0,0,0,0,0,0,0,0,0,0,0,0,255,256,0,0,0,0,0,0,0,0,0,0,0,0,0,0,0,0,0,0,0,0,147,148,149,150,151,148,149,150,148,149,150,108,109,110,281,282,262,263,0,0,0,0,0,0,0,0,0,207,208,0,0,0,0,0,0,0,0,0,0,0,0,0,0,239,240,279,280,88,89,90,91,88,89,90,91,88,89,90,88,89,90,91,88,89,90,91,88,89,90,91,281,282,241,242,0,0,0,0,0,0,0,0,0,0,0,0,0,0,0,0,107,108,109,108,109,110,88,108,109,110,89,90,88,89,90,91,111,108,109,110,111,111,112,0,0,0,0,0,0,0,0,0,0,0,0,0,0,0,0,0,0,0,0,0,0,0,0,0,0,0,0,0,0,0,0,0,0,0,107,129,130,281,282,262,263,0,0,0,0,0,0,0,0,0,0,0,0,0,0,0,0,0,0,0,0,0,0,0,0,0,0,0,0,0,0,0,0,0,0,0,0,0,0,0,0,0,0,0,0,0,0,0,0,259,260,88,89,90,91,88,89,90,91,89,90,91,89,90,91,90,91,261,262,0,0,0,0,0,0,0,0,0,0,0,0,0,0,0,0,0,0,0,0,0,0,0,0,0,0,0,0,0,0,0,0,0,0,0,0,0,0,0,0,0,0,0,0,0,0,0,0,0,0,0,0,0,0,0,
0,0,0,0,0,0,0,0,0,0,0,0,0,0,0,0,0,0,0,0,0,0,0,0,0,0,0,0,0,0,0,0,0,0,0,0,0,0,0,0,0,0,127,128,88,89,90,91,88,89,90,91,88,89,90,91,128,129,130,128,129,88,89,281,282,241,242,0,0,0,0,0,0,0,0,0,0,0,0,0,0,0,189,190,191,192,193,194,0,0,0,0,0,0,0,0,195,196,0,0,275,276,0,0,0,0,0,0,0,0,0,0,0,0,0,0,0,0,0,0,0,0,87,88,89,90,88,89,90,91,88,89,90,128,129,88,89,90,282,68,69,70,71,72,0,0,0,0,0,0,0,0,0,0,0,0,0,0,0,0,0,0,0,0,0,259,260,299,300,108,109,110,111,108,109,110,111,108,109,110,108,109,110,111,108,109,110,111,108,109,110,111,301,302,261,262,0,0,0,0,0,0,0,0,0,0,0,0,0,0,0,0,127,128,129,128,129,130,108,128,129,130,109,110,108,109,110,111,131,128,129,130,131,131,132,0,0,0,0,0,0,0,0,0,0,0,0,0,0,0,0,0,0,67,68,69,70,71,68,69,70,69,70,71,71,72,0,0,0,0,127,149,88,89,90,282,283,68,69,68,69,205,206,205,206,70,71,71,72,0,0,0,0,0,0,0,0,0,0,0,0,0,0,0,0,195,196,0,0,0,0,195,196,0,0,0,0,0,0,0,0,0,0,239,240,279,280,108,109,110,111,88,89,90,91,108,109,110,89,90,91,110,111,281,261,262,263,263,0,0,0,0,0,0,0,0,0,0,0,0,0,0,0,0,0,0,0,0,0,0,0,0,0,0,0,0,0,0,0,0,0,0,0,0,0,0,0,0,0,0,0,0,0,0,0,0,0,0,0,0,
0,0,0,0,0,0,0,0,0,0,0,0,0,0,0,0,0,0,0,0,0,0,0,0,0,0,0,0,0,0,0,0,0,0,0,0,0,0,0,0,0,0,147,148,108,109,110,111,108,109,110,111,108,109,110,111,148,149,150,148,149,108,109,110,111,261,241,242,0,0,0,0,0,0,0,0,0,0,0,0,0,0,209,210,211,212,213,214,0,0,0,0,0,0,0,0,215,216,0,0,195,196,0,0,0,0,0,0,0,0,0,0,0,0,0,0,0,0,0,0,0,0,107,108,109,110,108,109,110,111,108,109,110,111,0,108,109,88,89,88,89,90,91,92,0,0,0,0,0,0,0,0,0,0,0,0,0,0,0,0,0,0,0,239,240,279,88,89,90,91,129,130,131,128,129,130,131,128,129,130,128,129,130,131,128,129,130,131,128,129,130,131,88,89,90,261,241,242,0,0,0,0,0,0,0,0,0,0,0,0,0,0,147,148,149,148,149,150,128,129,130,131,129,130,128,129,130,131,151,148,149,150,151,151,152,0,0,0,0,0,0,0,0,0,0,0,0,0,0,0,0,0,0,87,88,89,90,88,88,89,90,89,90,91,91,92,0,0,0,0,147,91,108,109,110,111,88,88,89,88,89,225,226,225,226,90,91,91,92,0,0,0,0,0,0,0,0,0,0,0,0,0,0,0,0,215,216,0,0,0,0,215,216,0,0,0,0,0,0,0,0,0,0,259,260,299,300,128,129,130,131,108,109,110,111,128,129,130,109,89,90,91,131,89,281,282,283,283,69,70,71,69,70,69,70,71,69,70,71,69,70,71,69,70,71,69,70,71,69,70,71,69,70,71,69,70,71,69,70,71,69,70,69,70,69,70,71,69,70,69,70,71,69,70,71,69,70,71,69,70,
67,68,69,70,71,68,69,68,69,70,71,72,0,0,0,0,0,239,240,68,69,70,71,68,69,70,71,71,72,0,0,0,0,0,0,0,0,0,0,0,0,0,87,88,128,129,130,131,88,89,90,91,128,129,130,131,108,109,110,0,0,128,129,88,89,90,261,262,242,0,0,0,0,0,0,0,0,0,0,0,0,0,0,0,0,0,0,0,0,0,0,0,0,0,0,0,195,196,0,0,215,216,0,0,0,0,0,0,0,0,0,0,0,0,0,0,0,0,0,0,0,0,87,88,89,90,88,89,90,91,88,89,90,91,88,89,90,108,109,108,109,110,111,282,262,263,0,0,0,0,0,0,0,0,0,0,0,0,0,0,0,0,0,259,260,299,108,109,88,89,90,88,89,88,88,88,88,89,90,91,148,88,89,90,88,89,90,88,88,89,90,91,108,109,110,111,261,262,0,0,0,0,0,0,0,0,0,0,0,0,0,0,107,108,88,89,90,91,148,149,150,151,89,90,88,89,90,88,89,88,89,90,91,91,92,0,0,0,0,0,0,0,0,0,0,0,0,0,0,0,0,0,0,107,108,109,110,108,109,110,111,89,90,89,90,282,190,191,192,193,269,88,128,129,130,131,108,109,110,111,89,90,89,90,89,89,90,111,112,0,0,0,0,0,0,0,0,0,0,0,0,0,0,0,0,235,236,0,0,0,0,235,236,0,0,0,0,0,0,0,0,239,240,279,280,88,89,88,89,90,91,128,129,130,131,88,89,90,129,89,90,91,91,109,301,89,90,89,89,90,91,89,90,89,90,91,89,90,91,89,90,91,89,90,91,89,90,91,89,90,91,89,90,91,89,90,91,89,90,91,89,90,89,90,89,90,91,108,109,110,111,111,111,90,91,89,90,91,89,90,
87,88,89,90,91,88,89,88,89,90,91,92,0,0,0,0,239,240,260,88,89,90,91,88,89,90,91,91,92,0,0,0,0,0,0,0,0,0,0,0,0,0,107,108,148,149,150,151,108,109,110,111,148,149,150,151,128,129,130,88,89,90,88,108,109,110,281,282,241,242,0,0,0,0,0,0,0,0,0,0,0,0,0,0,0,0,0,0,0,0,0,0,0,0,0,0,215,216,0,0,235,236,0,0,0,0,0,0,0,0,0,0,0,0,0,0,0,0,0,0,0,0,107,108,109,110,108,109,110,111,108,109,110,111,88,88,89,88,89,90,88,88,89,90,282,283,126,125,126,245,246,205,206,205,206,205,206,206,206,205,206,245,246,88,89,90,91,91,108,109,110,108,109,108,108,108,108,109,88,89,90,108,109,110,108,109,110,108,108,109,110,111,88,89,90,91,91,282,262,263,0,0,0,0,0,0,0,0,0,0,0,0,107,108,108,109,110,111,108,109,110,111,109,110,108,109,110,108,109,108,109,110,111,111,112,0,0,0,0,0,0,0,0,0,0,0,0,0,0,0,0,0,0,127,88,89,90,128,88,89,90,109,110,109,110,111,109,110,109,110,111,108,148,149,150,88,89,90,91,88,109,110,109,89,90,89,90,131,92,0,0,0,0,0,0,0,0,0,0,0,0,0,0,0,0,255,256,0,0,0,0,255,256,0,0,0,0,0,0,0,0,259,260,88,89,108,109,108,109,110,111,88,89,90,91,108,109,110,149,109,110,111,111,89,90,109,110,109,109,110,111,109,110,109,110,111,109,110,111,109,110,111,109,110,111,109,110,111,109,110,111,109,110,111,108,109,110,111,111,111,108,108,108,108,109,110,111,111,111,111,111,131,131,111,111,111,111,108,109,110,
107,108,109,110,108,109,110,110,108,109,110,112,0,0,0,239,240,260,280,108,109,110,111,108,109,110,111,111,112,0,0,0,0,0,0,0,0,0,0,0,0,0,127,128,88,89,90,91,128,129,130,131,88,89,90,91,108,109,110,108,109,110,108,128,129,88,89,90,261,262,263,0,0,0,0,0,0,0,0,0,0,0,0,0,0,0,0,0,0,0,0,0,0,0,0,0,235,236,0,0,255,256,0,0,0,0,0,0,0,0,0,0,0,0,0,0,0,0,0,0,0,0,127,128,129,130,128,129,130,131,128,129,130,131,108,108,109,108,109,110,108,108,109,110,91,185,185,186,146,265,266,225,226,225,226,225,226,226,226,225,226,265,266,108,109,110,111,111,128,129,130,128,129,128,128,128,128,129,108,109,110,128,129,130,128,129,130,128,128,129,130,131,108,109,88,89,90,91,282,71,71,71,85,85,86,86,71,72,0,0,0,0,127,128,128,129,130,131,128,129,130,131,129,130,128,129,130,128,129,128,129,130,131,131,132,0,0,0,0,0,0,0,0,0,0,0,0,0,0,0,0,0,0,87,88,109,110,111,108,109,110,129,130,129,130,131,129,130,129,130,131,128,129,130,131,108,109,110,111,108,129,130,129,109,110,109,110,151,112,0,0,0,0,0,0,0,0,0,0,0,0,0,0,0,0,275,276,0,0,0,0,275,276,0,0,0,0,67,68,70,71,279,280,108,109,128,129,128,129,130,131,108,109,110,111,128,129,130,131,129,130,131,131,109,110,129,130,129,129,130,131,129,130,129,130,131,129,130,131,129,130,131,129,130,131,129,130,131,129,130,131,129,130,131,108,108,109,110,111,131,111,111,111,111,111,111,111,131,131,131,131,130,131,131,131,131,131,111,111,111,
127,128,129,130,128,129,130,130,128,129,130,132,0,0,0,259,260,280,108,109,110,111,108,128,129,130,131,111,112,0,0,0,0,0,0,0,0,0,0,0,0,0,147,148,108,109,110,111,148,149,150,151,108,109,110,111,128,129,130,128,129,130,128,129,130,108,109,110,281,282,283,68,68,69,70,68,68,69,70,0,0,0,0,0,0,0,0,0,0,0,0,0,0,0,0,0,255,256,0,0,275,276,0,0,0,0,0,0,0,0,0,0,0,0,0,0,0,0,0,0,0,0,147,148,149,150,148,149,150,151,148,149,150,151,128,128,129,128,129,130,128,128,129,130,91,128,129,130,131,128,129,130,131,88,89,88,89,90,89,90,128,129,130,128,129,130,131,131,148,149,150,148,149,148,148,148,148,149,128,129,130,148,149,150,148,149,150,148,148,149,150,151,128,129,108,109,110,111,302,91,91,91,105,105,106,106,91,92,0,0,0,0,147,148,148,149,150,151,148,149,150,151,149,150,148,149,150,148,149,148,149,150,151,93,282,283,245,245,245,245,245,245,245,245,245,245,246,245,246,0,0,0,0,107,108,129,130,131,128,129,130,149,150,149,150,151,149,150,149,150,151,148,149,150,151,128,129,130,131,128,129,130,131,129,130,129,130,111,132,0,0,0,0,0,0,0,0,0,0,0,0,0,0,0,0,295,296,0,0,0,0,295,296,0,0,0,0,87,88,90,91,299,300,128,129,130,131,128,129,130,131,128,129,130,131,148,149,150,151,149,150,151,151,129,130,149,150,149,149,150,151,149,150,149,150,151,149,150,151,149,150,151,149,150,151,149,150,151,149,150,151,149,150,151,128,128,129,130,131,131,131,131,131,131,131,131,131,128,128,128,128,128,128,128,129,130,131,131,131,131
</data>
 </layer>
 <objectgroup id="8" name="Object Layer 1" class="Solid">
  <object id="1" name="Collision" type="Solid" x="10" y="269" width="1" height="2"/>
  <object id="2" name="Collision" type="Solid" x="2" y="256" width="185" height="62"/>
  <object id="3" name="Collision" type="Solid" x="226" y="192" width="26" height="31"/>
  <object id="4" name="Collision" type="Solid" x="242" y="313" height="1"/>
  <object id="5" name="Collision" type="Solid" x="242" y="311" width="22" height="6"/>
  <object id="6" name="Collision" type="Solid" x="257" y="304" width="17" height="6"/>
  <object id="7" name="Collision" type="Solid" x="261" y="297" width="19" height="6"/>
  <object id="8" name="Collision" type="Solid" x="269" y="290.5" width="15.5" height="6.5"/>
  <object id="9" name="Collision" type="Solid" x="276.5" y="283" width="14.5" height="8"/>
  <object id="10" name="Collision" type="Solid" x="284" y="274.5" width="11.5" height="10"/>
  <object id="11" name="Collision" type="Solid" x="288.5" y="268" width="18" height="10.5"/>
  <object id="12" name="Collision" type="Solid" x="299" y="257.5" width="19" height="15"/>
  <object id="16" name="Collision" type="Solid" x="332" y="257.5" width="129.5" height="61"/>
  <object id="17" name="Collision" type="Solid" x="514.5" y="177" width="92.5" height="30"/>
  <object id="18" name="Collision" type="Solid" x="674.5" y="130.5" width="60.5" height="187"/>
  <object id="20" name="Collision" type="Solid" x="897" y="132" width="46.5" height="36"/>
  <object id="21" name="Collision" type="Solid" x="943.5" y="135.5" width="11" height="12.5"/>
  <object id="22" name="Collision" type="Solid" x="954.5" y="139" width="4" height="16"/>
  <object id="23" name="Collision" type="Solid" x="953" y="144.5" width="8" height="15"/>
  <object id="24" name="Collision" type="Solid" x="951.5" y="151" width="15.5" height="13"/>
  <object id="25" name="Collision" type="Solid" x="959.5" y="156.5" width="13" height="16.5"/>
  <object id="26" name="Collision" type="Solid" x="966.5" y="166" width="13" height="17.5"/>
  <object id="27" name="Collision" type="Solid" x="974.5" y="170.5" width="13.5" height="20.5"/>
  <object id="28" name="Collision" type="Solid" x="983" y="176" width="10.5" height="24"/>
  <object id="29" name="Collision" type="Solid" x="989" y="182.5" width="10.5" height="27"/>
  <object id="30" name="Collision" type="Solid" x="993.5" y="189.5" width="11.5" height="28"/>
  <object id="31" name="Collision" type="Solid" x="999.5" y="197" width="13" height="29"/>
  <object id="32" name="Collision" type="Solid" x="1007" y="206.5" width="12.5" height="27"/>
  <object id="33" name="Collision" type="Solid" x="1012" y="209.5" width="13.5" height="34"/>
  <object id="34" name="Collision" type="Solid" x="1017.5" y="221" width="17.5" height="38"/>
  <object id="35" name="Collision" type="Solid" x="1026" y="226.5" width="16.5" height="39"/>
  <object id="36" name="Collision" type="Solid" x="1033.5" y="235" width="16" height="40"/>
  <object id="37" name="Collision" type="Solid" x="1041.5" y="238.5" width="13" height="44"/>
  <object id="38" name="Collision" type="Solid" x="1046" y="245.5" width="15" height="46.5"/>
  <object id="39" name="Collision" type="Solid" x="1053" y="248.5" width="12" height="52.5"/>
  <object id="40" name="Collision" type="Solid" x="1060" y="253.5" width="11.5" height="52"/>
  <object id="41" name="Collision" type="Solid" x="1064.5" y="261.5" width="13" height="53"/>
  <object id="42" name="Collision" type="Solid" x="1072" y="267" width="11.5" height="56.5"/>
  <object id="43" name="Collision" type="Solid" x="1077" y="276" width="14.5" height="46"/>
  <object id="44" name="Collision" type="Solid" x="1086.5" y="284" width="11" height="35"/>
  <object id="45" name="Collision" type="Solid" x="1098" y="286.5" width="7" height="34"/>
  <object id="46" name="Collision" type="Solid" x="1103" y="290.5" width="5.5" height="30.5"/>
  <object id="47" name="Collision" type="Solid" x="1109" y="295.5" width="4" height="24"/>
  <object id="48" name="Collision" type="Solid" x="1113" y="300.5" width="6" height="17.5"/>
  <object id="49" name="Collision" type="Solid" x="1118.5" y="303"/>
  <object id="50" name="Collision" type="Solid" x="1119" y="305" width="144.5" height="16"/>
  <object id="51" name="Collision" type="Solid" x="1314.5" y="225.5" width="92.5" height="29.5"/>
  <object id="52" name="Collision" type="Solid" x="1458" y="160.5" width="28.5" height="30"/>
  <object id="53" name="Collision" type="Solid" x="1536" y="223.5" width="30" height="95.5"/>
  <object id="54" name="Collision" type="Solid" x="1601" y="176.5" width="30" height="144"/>
  <object id="55" name="Collision" type="Solid" x="1681.5" y="113.5" width="188" height="29"/>
  <object id="56" name="Collision" type="Solid" x="1953.5" y="145" width="193" height="173.5"/>
  <object id="57" name="Collision" type="Solid" x="2146" y="147" width="4" height="18.5"/>
  <object id="58" name="Collision" type="Solid" x="2147.5" y="152" width="4.5" height="25"/>
  <object id="59" name="Collision" type="Solid" x="2149.5" y="159.5" width="8.5" height="26.5"/>
  <object id="60" name="Collision" type="Solid" x="2150.5" y="161.5" width="11" height="22"/>
  <object id="61" name="Collision" type="Solid" x="2158" y="169.5" width="14" height="26"/>
  <object id="62" name="Collision" type="Solid" x="2166.5" y="173.5" width="8.5" height="36.5"/>
  <object id="63" name="Collision" type="Solid" x="2172.5" y="179.5" width="8" height="41.5"/>
  <object id="64" name="Collision" type="Solid" x="2177.5" y="185.5" width="10" height="42.5"/>
  <object id="65" name="Collision" type="Solid" x="2183.5" y="192.5" width="9" height="39"/>
  <object id="66" name="Collision" type="Solid" x="2188.5" y="195.5" width="8.5" height="48.5"/>
  <object id="67" name="Collision" type="Solid" x="2194" y="205" width="11" height="45.5"/>
  <object id="68" name="Collision" type="Solid" x="2200.5" y="210" width="11.5" height="54.5"/>
  <object id="69" name="Collision" type="Solid" x="2208.5" y="220" width="15" height="43"/>
  <object id="70" name="Collision" type="Solid" x="2222" y="226" width="16.5" height="41.5"/>
  <object id="71" name="Collision" type="Solid" x="2236" y="227.5" width="15" height="38.5"/>
  <object id="72" name="Collision" type="Solid" x="2248" y="224" width="18.5" height="54.5"/>
  <object id="73" name="Collision" type="Solid" x="2225" y="224.5" width="77" height="34.5"/>
  <object id="74" name="Collision" type="Solid" x="2299.5" y="256" width="4.5" height="7"/>
  <object id="75" name="Collision" type="Solid" x="2302" y="259" width="5" height="11.5"/>
  <object id="76" name="Collision" type="Solid" x="2305" y="263.5" width="6.5" height="9"/>
  <object id="77" name="Collision" type="Solid" x="2309" y="267.5" width="7" height="9"/>
  <object id="78" name="Collision" type="Solid" x="2314" y="271" width="5.5" height="9"/>
  <object id="79" name="Collision" type="Solid" x="2320" y="272.5" width="15" height="12.5"/>
  <object id="80" name="Collision" type="Solid" x="2384.5" y="193" width="30.5" height="29.5"/>
  <object id="81" name="Collision" type="Solid" x="2481.5" y="144" width="93.5" height="31.5"/>
  <object id="82" name="Collision" type="Solid" x="2620" y="259" width="12.5" height="16.5"/>
  <object id="83" name="Collision" type="Solid" x="2616.5" y="263.5" width="14.5" height="14"/>
  <object id="84" name="Collision" type="Solid" x="2611.5" y="267.5" width="14" height="11.5"/>
  <object id="85" name="Collision" type="Solid" x="2625.5" y="252.5" width="10" height="17"/>
  <object id="86" name="Collision" type="Solid" x="2632" y="247" width="8" height="14.5"/>
  <object id="87" name="Collision" type="Solid" x="2638.5" y="241" width="6.5" height="14.5"/>
  <object id="88" name="Collision" type="Solid" x="2644.5" y="235.5" width="6.5" height="15"/>
  <object id="89" name="Collision" type="Solid" x="2650.5" y="228" width="6" height="17.5"/>
  <object id="90" name="Collision" type="Solid" x="2657.5" y="223" width="7" height="14.5"/>
  <object id="91" name="Collision" type="Solid" x="2664.5" y="215" width="7" height="21.5"/>
  <object id="92" name="Collision" type="Solid" x="2670" y="209" width="8" height="19"/>
  <object id="93" name="Collision" type="Solid" x="2678.5" y="202" width="7" height="25"/>
  <object id="94" name="Collision" type="Solid" x="2682.5" y="197.5" width="12" height="18.5"/>
  <object id="95" name="Collision" type="Solid" x="2686.5" y="193" width="12.5" height="15.5"/>
  <object id="96" name="Collision" type="Solid" x="2692" y="186" width="11" height="22.5"/>
  <object id="97" name="Collision" type="Solid" x="2699.5" y="180.5" width="8" height="16.5"/>
  <object id="98" name="Collision" type="Solid" x="2704" y="177" width="12.5" height="22.5"/>
  <object id="99" name="Collision" type="Solid" x="2717.5" y="176" width="154" height="46.5"/>
  <object id="100" name="Collision" type="Solid" x="2872" y="176" width="201.5" height="46.5"/>
  <object id="101" name="Collision" type="Solid" x="3073.5" y="182.5" width="6" height="22"/>
  <object id="102" name="Collision" type="Solid" x="3077.5" y="187.5" width="7.5" height="22"/>
  <object id="103" name="Collision" type="Solid" x="3083" y="192.5" width="6" height="28"/>
  <object id="104" name="Collision" type="Solid" x="3087.5" y="198.5" width="6.5" height="28"/>
  <object id="105" name="Collision" type="Solid" x="3091.5" y="205.5" width="9" height="28.5"/>
  <object id="106" name="Collision" type="Solid" x="3098" y="209" width="6.5" height="31"/>
  <object id="107" name="Collision" type="Solid" x="3102.5" y="212" width="6.5" height="32"/>
  <object id="108" name="Collision" type="Solid" x="3106.5" y="217.5" width="7.5" height="32"/>
  <object id="109" name="Collision" type="Solid" x="3112" y="223.5" width="8" height="35.5"/>
  <object id="110" name="Collision" type="Solid" x="3117.5" y="230" width="8.5" height="31"/>
  <object id="111" name="Collision" type="Solid" x="3122.5" y="236" width="8.5" height="32"/>
  <object id="112" name="Collision" type="Solid" x="3128" y="241" width="9" height="33.5"/>
  <object id="113" name="Collision" type="Solid" x="3132" y="248.5" width="9.5" height="31"/>
  <object id="114" name="Collision" type="Solid" x="3139.5" y="252" width="10.5" height="26"/>
  <object id="115" name="Collision" type="Solid" x="3146" y="257.5" width="9" height="28"/>
  <object id="116" name="Collision" type="Solid" x="3151.5" y="263.5" width="9" height="30"/>
  <object id="117" name="Collision" type="Solid" x="3155.5" y="266.5" width="8" height="33"/>
  <object id="118" name="Collision" type="Solid" x="3160" y="270.5" width="6.5" height="37.5"/>
  <object id="119" name="Collision" type="Solid" x="3164.5" y="275" width="6.5" height="36.5"/>
  <object id="120" name="Collision" type="Solid" x="3169" y="279" width="7" height="42.5"/>
  <object id="121" name="Collision" type="Solid" x="3173" y="286" width="9" height="30"/>
  <object id="122" name="Collision" type="Solid" x="3183" y="288.5" width="48.5" height="34.5"/>
  <object id="123" name="Collision" type="Solid" x="3294.5" y="288.5" width="33" height="34"/>
  <object id="124" name="Collision" type="Solid" x="3153.5" y="129.5" width="29.5" height="30"/>
  <object id="125" name="Collision" type="Solid" x="3280.5" y="97" width="94" height="30.5"/>
  <object id="126" name="Collision" type="Solid" x="3393" y="177" width="109.5" height="142.5"/>
  <object id="127" name="Collision" type="Solid" x="3584" y="176" width="169.5" height="145"/>
  <object id="128" name="Collision" type="Solid" x="3753" y="175.5" width="5" height="145"/>
  <object id="129" name="Collision" type="Solid" x="3758" y="303" width="17.5" height="18"/>
  <object id="130" name="Collision" type="Solid" x="3824.5" y="144" width="95" height="30.5"/>
  <object id="131" name="Collision" type="Solid" x="4050.5" y="114" width="206.5" height="37"/>
  <object id="132" name="Collision" type="Solid" x="4258" y="111.5" width="46" height="68.5"/>
  <object id="133" name="Collision" type="Solid" x="4048.5" y="224" width="205.5" height="98"/>
  <object id="134" name="Collision" type="Solid" x="4254.5" y="255" width="68" height="64.5"/>
  <object id="135" name="Collision" type="Solid" x="4320" y="178" width="48.5" height="85.5"/>
  <object id="136" name="Collision" type="Solid" x="4303.5" y="111.5" width="1" height="1"/>
  <object id="137" name="Collision" type="Solid" x="4303.5" y="158.5" width="46" height="18.5"/>
  <object id="138" name="Collision" type="Solid" x="4303.5" y="143.5" width="31.5" height="12.5"/>
  <object id="139" name="Collision" type="Solid" x="4304" y="130.5" width="17.5" height="12.5"/>
  <object id="140" name="Collision" type="Solid" x="4304" y="120.5" width="9" height="9"/>
  <object id="141" name="Collision" type="Solid" x="4300.5" y="113.5" height="0.5"/>
  <object id="142" name="Collision" type="Solid" x="4300.5" y="116" width="7" height="7.5"/>
  <object id="143" name="Collision" type="Solid" x="4311" y="123.5" width="4" height="12"/>
  <object id="144" name="Collision" type="Solid" x="4319" y="133.5" width="6" height="11.5"/>
  <object id="145" name="Collision" type="Solid" x="4323" y="138" width="7" height="9.5"/>
  <object id="146" name="Collision" type="Solid" x="4333" y="149.5" width="9" height="8"/>
  <object id="147" name="Collision" type="Solid" x="4347.5" y="164" width="10.5" height="9.5"/>
  <object id="148" name="Collision" type="Solid" x="4353.5" y="168.5" width="7.5" height="13.5"/>
  <object id="149" name="Collision" type="Solid" x="4358" y="174.5" width="8" height="13"/>
  <object id="150" name="Collision" type="Solid" x="4365.5" y="185.5" width="10.5" height="17"/>
  <object id="151" name="Collision" type="Solid" x="4365" y="180.5" width="7.5" height="12"/>
  <object id="152" name="Collision" type="Solid" x="4369" y="189.5" width="13.5" height="18"/>
  <object id="153" name="Collision" type="Solid" x="4377.5" y="194.5" width="9" height="14.5"/>
  <object id="154" name="Collision" type="Solid" x="4382" y="199.5" width="11" height="17.5"/>
  <object id="155" name="Collision" type="Solid" x="4388.5" y="208" width="13" height="17.5"/>
  <object id="156" name="Collision" type="Solid" x="4397" y="215" width="10.5" height="17"/>
  <object id="157" name="Collision" type="Solid" x="4405" y="222" width="10.5" height="12.5"/>
  <object id="158" name="Collision" type="Solid" x="4367" y="208" width="22" height="111.5"/>
  <object id="159" name="Collision" type="Solid" x="4321.5" y="262.5" width="47.5" height="57"/>
  <object id="160" name="Collision" type="Solid" x="4388.5" y="229.5"/>
  <object id="161" name="Collision" type="Solid" x="4388" y="220" height="0.5"/>
  <object id="162" name="Collision" type="Solid" x="4387.5" y="224.5" width="109" height="95.5"/>
  <object id="163" name="Collision" type="Solid" x="4560" y="224.5" width="62.5" height="95"/>
  <object id="164" name="Collision" type="Solid" x="4513" y="160.5" width="30" height="29.5"/>
  <object id="165" name="Collision" type="Solid" x="4672.5" y="143.5" width="159.5" height="32"/>
  <object id="166" name="Collision" type="Solid" x="3502.5" y="201.5" width="81.5" height="117.5"/>
  <object id="167" name="Collision" type="Solid" x="3522" y="128" width="28" height="15.5"/>
  <object id="168" name="Collision" type="Solid" x="4496" y="248.5" width="63" height="71"/>
  <object id="169" name="Collision" type="Solid" x="4881" y="223.5" width="29" height="96"/>
  <object id="170" name="Collision" type="Solid" x="4976" y="223.5" width="32" height="95.5"/>
  <object id="171" name="Collision" type="Solid" x="5074" y="287.5" width="58" height="32.5"/>
  <object id="172" name="Collision" type="Solid" x="5143" y="298.5" width="1" height="0.5"/>
  <object id="173" name="Collision" type="Solid" x="5132" y="287" width="229" height="33"/>
  <object id="174" name="Collision" type="Solid" x="5152" y="273" width="208.5" height="12.5"/>
  <object id="175" name="Collision" type="Solid" x="5168.5" y="256" width="196.5" height="14"/>
  <object id="176" name="Collision" type="Solid" x="5184.5" y="240.5" width="179.5" height="14.5"/>
  <object id="177" name="Collision" type="Solid" x="5199.5" y="223.5" width="163" height="16"/>
  <object id="178" name="Collision" type="Solid" x="5217.5" y="207.5" width="148" height="13"/>
  <object id="179" name="Collision" type="Solid" x="5230.5" y="191.5" width="137" height="15"/>
  <object id="180" name="Collision" type="Solid" x="5144" y="280" height="0.5"/>
  <object id="181" name="Collision" type="Solid" x="5140.5" y="282" width="10" height="10.5"/>
  <object id="186" name="Collision" type="Solid" x="5160.5" y="264" width="10.5" height="18"/>
  <object id="187" name="Collision" type="Solid" x="5176" y="245.5" width="11" height="19.5"/>
  <object id="188" name="Collision" type="Solid" x="5191" y="233" width="12" height="15"/>
  <object id="189" name="Collision" type="Solid" x="5208.5" y="215.5" width="10.5" height="12"/>
  <object id="190" name="Collision" type="Solid" x="5222" y="203"/>
  <object id="191" name="Collision" type="Solid" x="5222" y="202.5" width="8.5" height="21"/>
  <object id="192" name="Collision" type="Solid" x="5365.5" y="192" width="123" height="130.5"/>
  <object id="193" name="Collision" type="Solid" x="5473.5" y="206.5" width="28" height="36.5"/>
  <object id="194" name="Collision" type="Solid" x="5476.5" y="216.5" width="36" height="37.5"/>
  <object id="195" name="Collision" type="Solid" x="5487.5" y="226.5" width="34" height="35.5"/>
  <object id="196" name="Collision" type="Solid" x="5494.5" y="236" width="37.5" height="41"/>
  <object id="197" name="Collision" type="Solid" x="5480.5" y="196" width="13" height="15.5"/>
  <object id="198" name="Collision" type="Solid" x="5488.5" y="201" width="8.5" height="15.5"/>
  <object id="199" name="Collision" type="Solid" x="5495" y="211.5" width="13.5" height="12"/>
  <object id="200" name="Collision" type="Solid" x="5506.5" y="220" width="11.5" height="10"/>
  <object id="201" name="Collision" type="Solid" x="5515" y="229.5" width="10.5" height="9.5"/>
  <object id="202" name="Collision" type="Solid" x="5534" y="240" width="166" height="79.5"/>
  <object id="203" name="Collision" type="Solid" x="5699.5" y="240" width="284.5" height="81.5"/>
  <object id="204" name="Collision" type="Solid" x="5664" y="95.5" width="192" height="32.5"/>
  <object id="205" name="Collision" type="Solid" x="5904.5" y="49.5" width="47" height="29"/>
  <object id="206" name="Collision" type="Solid" x="5984" y="264.5" width="96.5" height="56"/>
  <object id="207" name="Collision" type="Solid" x="6079.5" y="240.5" width="177" height="81.5"/>
  <object id="208" name="Collision" type="Solid" x="6256" y="239.5" width="143" height="80.5"/>
  <object id="209" name="Collision" type="Solid" x="263.5" y="315.5" width="0.5" height="2"/>
  <object id="210" name="Collision" type="Solid" x="293.5" y="272.5" width="40.5" height="46.5"/>
  <object id="211" name="Collision" type="Solid" x="273" y="295" width="23.5" height="25"/>
  <object id="212" name="Collision" type="Solid" x="261" y="309.5" width="20.5" height="10.5"/>
  <object id="213" name="Collision" type="Solid" x="717.5" y="149"/>
  <object id="214" name="Collision" type="Solid" x="734" y="172" width="195.5" height="147"/>
  <object id="215" name="Collision" type="Solid" x="910.5" y="170" width="49.5" height="148.5"/>
  <object id="216" name="Collision" type="Solid" x="949" y="194.5" width="52" height="125"/>
  <object id="217" name="Collision" type="Solid" x="984.5" y="235" width="55.5" height="83.5"/>
  <object id="218" name="Collision" type="Solid" x="316.545" y="257.091" width="16.9091" height="16"/>
  <object id="219" name="Collision" type="Solid" x="735.5" y="151" width="160.5" height="20.5"/>
  <object id="230" x="2318.5" y="295" height="0.5"/>
  <object id="231" name="Collision" type="Solid" x="2320.5" y="289.5" width="309.5" height="30.5"/>
  <object id="232" name="Collision" type="Solid" x="3231.5" y="304.5" width="66" height="15.5"/>
  <object id="233" x="3494.5" y="195.5" width="1"/>
  <object id="234" name="Collision" type="Solid" x="3498.5" y="188" width="102.5" height="48"/>
  <object id="248" name="Collision" type="Solid" x="6383.5" y="49" width="15.5" height="190.5"/>
  <object id="249" name="Collision" type="Solid" x="5982.5" y="239.5" width="97.5" height="29.5"/>
 </objectgroup>
 <objectgroup id="13" name="SpawnPoints">
  <object id="235" name="Player" type="PlayerSpawn" x="47" y="233.5">
   <point/>
  </object>
  <object id="236" name="Enemy1" type="EnemySpawn" x="577.5" y="160">
   <point/>
  </object>
  <object id="237" name="Enemy2" type="EnemySpawn" x="1222.5" y="287">
   <point/>
  </object>
  <object id="238" name="Enemy3" type="EnemySpawn" x="1840.5" y="99">
   <point/>
  </object>
  <object id="239" name="Enemy4" type="EnemySpawn" x="2116.5" y="125">
   <point/>
  </object>
  <object id="240" name="Enemy5" type="EnemySpawn" x="2774" y="146.5">
   <point/>
  </object>
  <object id="241" name="Enemy6" type="EnemySpawn" x="3027.5" y="141.5">
   <point/>
  </object>
  <object id="242" name="Enemy7" type="EnemySpawn" x="3685" y="150.5">
   <point/>
  </object>
  <object id="243" name="Enemy8" type="EnemySpawn" x="4203.5" y="205">
   <point/>
  </object>
  <object id="244" name="Enemy9" type="EnemySpawn" x="4114.5" y="80">
   <point/>
  </object>
  <object id="245" name="Enemy10" type="EnemySpawn" x="4733.5" y="121">
   <point/>
  </object>
  <object id="246" name="Enemy11" type="EnemySpawn" x="5336" y="163.5">
   <point/>
  </object>
  <object id="247" name="Boss" type="BossSpawn" x="6000" y="192">
   <point/>
  </object>
 </objectgroup>
 <objectgroup id="12" name="water">
  <object id="220" name="water" type="Water" x="734.5" y="134.5" width="161.5" height="21.5"/>
  <object id="221" name="water" type="Water" x="2335" y="278" width="271.5" height="26.5"/>
  <object id="222" name="water" type="Water" x="3232.5" y="294" width="61.5" height="25.5"/>
  <object id="223" name="water" type="Water" x="3503" y="184" width="80" height="19.5"/>
  <object id="224" name="water" type="Water" x="3774" y="310.5" width="209.5" height="15.5"/>
  <object id="225" name="water" type="Water" x="4497" y="231.5" width="62.5" height="24"/>
  <object id="226" name="water" type="Water" x="4622" y="310.5" width="258" height="17.5"/>
  <object id="227" name="water" type="Water" x="4910" y="312.5" width="64.5" height="14.5"/>
  <object id="228" name="water" type="Water" x="5007" y="311" width="66" height="25"/>
 </objectgroup>
</map>
